; generated by PrusaSlicer 2.0.0+win64 on 2020-12-03 at 00:36:48

; 

; external perimeters extrusion width = 0.45mm
; perimeters extrusion width = 0.45mm
; infill extrusion width = 0.45mm
; solid infill extrusion width = 0.45mm
; top infill extrusion width = 0.40mm
; first layer extrusion width = 0.42mm

M73 P0 R78
M73 Q0 S78
M201 X1000 Y1000 Z200 E5000 ; sets maximum accelerations, mm/sec^2
M203 X200 Y200 Z12 E120 ; sets maximum feedrates, mm/sec
M204 P1250 R1250 T1250 ; sets acceleration (P, T) and retract acceleration (R), mm/sec^2
M205 X8.00 Y8.00 Z0.40 E1.50 ; sets the jerk limits, mm/sec
M205 S0 T0 ; sets the minimum extruding and travel feed rate, mm/sec
M107
M115 U3.9.1 ; tell printer latest fw version
G90 ; use absolute coordinates
M83 ; extruder relative mode
M104 S215 ; set extruder temp
M140 S60 ; set bed temp
M190 S60 ; wait for bed temp
M109 S215 ; wait for extruder temp
G28 W ; home all without mesh bed level
G80 ; mesh bed leveling
G1 Y-3.0 F1000.0 ; go outside print area
G92 E0.0
G1 X60.0 E9.0 F1000.0 ; intro line
M73 Q0 S78
M73 P0 R78
G1 X100.0 E12.5 F1000.0 ; intro line
G92 E0.0
M221 S95
M900 K30 ; Filament gcode
G21 ; set units to millimeters
G90 ; use absolute coordinates
M83 ; use relative distances for extrusion
;BEFORE_LAYER_CHANGE
G92 E0.0
;0.2


G1 E-0.80000 F2100.00000
G1 Z0.600 F10800.000
;AFTER_LAYER_CHANGE
;0.2
G1 X81.826 Y62.446
G1 Z0.200
G1 E0.80000 F2100.00000
M204 S1000
G1 F1200
G1 X82.663 Y61.650 E0.03620
G1 X83.405 Y61.141 E0.02822
G1 X84.214 Y60.755 E0.02810
G1 X85.378 Y60.414 E0.03803
G1 X86.444 Y60.312 E0.03359
G1 X163.504 Y60.311 E2.41614
G1 X164.581 Y60.407 E0.03391
G1 X165.647 Y60.696 E0.03462
G1 X166.628 Y61.161 E0.03405
G1 X167.604 Y61.874 E0.03792
G1 X168.356 Y62.672 E0.03437
G1 X168.859 Y63.405 E0.02787
G1 X169.245 Y64.214 E0.02810
G1 X169.584 Y65.371 E0.03780
G1 X169.685 Y66.382 E0.03187
G1 X169.688 Y143.540 E2.41924
G1 X169.593 Y144.584 E0.03288
G1 X169.307 Y145.640 E0.03428
G1 X168.847 Y146.616 E0.03382
G1 X168.174 Y147.554 E0.03621
G1 X167.337 Y148.350 E0.03620
G1 X166.595 Y148.859 E0.02822
G1 X165.780 Y149.248 E0.02833
G1 X164.611 Y149.588 E0.03814
G1 X163.516 Y149.688 E0.03451
G1 X86.460 Y149.688 E2.41603
G1 X85.416 Y149.593 E0.03288
G1 X84.360 Y149.307 E0.03428
G1 X83.384 Y148.847 E0.03382
G1 X82.446 Y148.174 E0.03621
G1 X81.650 Y147.337 E0.03620
G1 X81.141 Y146.595 E0.02822
G1 X80.752 Y145.780 E0.02833
G1 X80.412 Y144.611 E0.03814
G1 X80.312 Y143.516 E0.03451
G1 X80.312 Y66.460 E2.41603
G1 X80.407 Y65.415 E0.03288
G1 X80.693 Y64.360 E0.03428
G1 X81.153 Y63.384 E0.03382
G1 X81.791 Y62.495 E0.03433
G1 F8640
G1 X82.663 Y61.650 E-0.28021
G1 X83.405 Y61.141 E-0.20780
G1 X84.214 Y60.755 E-0.20695
G1 X84.484 Y60.676 E-0.06504
G1 E-0.04000 F2100.00000
G1 Z0.800 F10800.000
G1 X94.963 Y129.094
G1 Z0.200
G1 E0.80000 F2100.00000
G1 F1200
G1 X95.820 Y128.933 E0.02735
G1 X96.693 Y128.937 E0.02735
G1 X97.548 Y129.107 E0.02735
G1 X98.357 Y129.435 E0.02735
G1 X99.088 Y129.911 E0.02735
G1 X99.716 Y130.516 E0.02735
G1 X100.219 Y131.229 E0.02735
G1 X100.577 Y132.025 E0.02735
G1 X100.778 Y132.874 E0.02735
G1 X100.815 Y133.745 E0.02735
G1 X100.687 Y134.608 E0.02735
G1 X100.397 Y135.431 E0.02735
G1 X99.957 Y136.184 E0.02735
G1 X99.382 Y136.841 E0.02735
G1 X98.694 Y137.376 E0.02735
G1 X97.918 Y137.771 E0.02731
G1 X97.123 Y138.005 E0.02596
G1 X96.257 Y138.092 E0.02731
G1 X95.388 Y138.013 E0.02735
G1 X94.549 Y137.772 E0.02735
G1 X93.772 Y137.376 E0.02735
G1 X93.083 Y136.841 E0.02735
G1 X92.509 Y136.184 E0.02735
G1 X92.069 Y135.431 E0.02735
G1 X91.779 Y134.608 E0.02735
G1 X91.650 Y133.744 E0.02740
G1 X91.694 Y132.828 E0.02874
G1 X91.904 Y131.980 E0.02740
G1 X92.271 Y131.188 E0.02735
G1 X92.780 Y130.480 E0.02735
G1 X93.415 Y129.881 E0.02735
G1 X94.151 Y129.414 E0.02735
G1 X94.907 Y129.116 E0.02547
G1 X95.045 Y129.466 F10800.000
G1 F1200
G1 X95.854 Y129.310 E0.02583
G1 X96.655 Y129.314 E0.02510
G1 X97.440 Y129.470 E0.02510
G1 X98.181 Y129.771 E0.02510
G1 X98.852 Y130.207 E0.02510
G1 X99.429 Y130.763 E0.02510
G1 X99.890 Y131.417 E0.02509
G1 X100.218 Y132.147 E0.02510
G1 X100.403 Y132.926 E0.02510
G1 X100.437 Y133.725 E0.02510
G1 X100.319 Y134.517 E0.02509
G1 X100.053 Y135.272 E0.02510
G1 X99.649 Y135.963 E0.02510
G1 X99.122 Y136.565 E0.02510
G1 X98.491 Y137.057 E0.02510
G1 X97.778 Y137.419 E0.02508
G1 X97.050 Y137.633 E0.02377
G1 X96.255 Y137.713 E0.02508
G1 X95.457 Y137.641 E0.02510
G1 X94.688 Y137.420 E0.02510
G1 X93.975 Y137.057 E0.02510
G1 X93.343 Y136.565 E0.02510
G1 X92.816 Y135.963 E0.02510
G1 X92.412 Y135.272 E0.02510
G1 X92.147 Y134.517 E0.02510
G1 X92.029 Y133.725 E0.02511
G1 X92.069 Y132.883 E0.02642
G1 X92.261 Y132.106 E0.02511
G1 X92.598 Y131.379 E0.02510
G1 X93.065 Y130.730 E0.02510
G1 X93.647 Y130.180 E0.02510
G1 X94.323 Y129.751 E0.02510
G1 X94.989 Y129.488 E0.02246
G1 X95.140 Y129.078 F10800.000
G1 F8640
G1 X95.854 Y129.310 E-0.20389
G1 X96.655 Y129.314 E-0.18481
G1 X97.440 Y129.470 E-0.18481
G1 X98.181 Y129.771 E-0.18481
G1 X98.187 Y129.775 E-0.00169
G1 E-0.04000 F2100.00000
G1 Z0.800 F10800.000
G1 X83.141 Y144.090
G1 Z0.200
G1 E0.80000 F2100.00000
G1 F1200
G1 X83.087 Y143.474 E0.01936
G1 X83.087 Y66.526 E2.41267
G1 X83.141 Y65.908 E0.01945
G1 X83.295 Y65.333 E0.01864
G1 X83.546 Y64.795 E0.01864
G1 X83.887 Y64.308 E0.01864
G1 X84.308 Y63.887 E0.01864
G1 X84.795 Y63.546 E0.01864
G1 X85.301 Y63.310 E0.01753
G1 X85.910 Y63.141 E0.01981
G1 X86.526 Y63.087 E0.01936
G1 X163.512 Y63.090 E2.41386
G1 X164.092 Y63.141 E0.01826
G1 X164.667 Y63.295 E0.01864
G1 X165.205 Y63.546 E0.01864
G1 X165.692 Y63.887 E0.01864
G1 X166.113 Y64.308 E0.01864
G1 X166.454 Y64.795 E0.01864
G1 X166.705 Y65.333 E0.01864
G1 X166.859 Y65.908 E0.01864
G1 X166.913 Y66.526 E0.01945
G1 X166.913 Y143.474 E2.41267
G1 X166.859 Y144.092 E0.01945
G1 X166.705 Y144.667 E0.01864
G1 X166.454 Y145.205 E0.01864
G1 X166.113 Y145.692 E0.01864
G1 X165.692 Y146.113 E0.01864
G1 X165.205 Y146.454 E0.01864
G1 X164.667 Y146.705 E0.01864
G1 X164.092 Y146.859 E0.01864
G1 X163.474 Y146.913 E0.01945
G1 X86.526 Y146.913 E2.41267
G1 X85.908 Y146.859 E0.01945
G1 X85.333 Y146.705 E0.01864
G1 X84.795 Y146.454 E0.01864
G1 X84.308 Y146.113 E0.01864
G1 X83.887 Y145.692 E0.01864
G1 X83.546 Y145.205 E0.01864
G1 X83.310 Y144.699 E0.01753
G1 X83.157 Y144.147 E0.01793
G1 X82.794 Y144.248 F10800.000
G1 F1200
G1 X82.768 Y144.157 E0.00297
G1 X82.710 Y143.491 E0.02097
G1 X82.710 Y66.509 E2.41371
G1 X82.768 Y65.842 E0.02100
G1 X82.939 Y65.204 E0.02071
G1 X83.218 Y64.605 E0.02071
G1 X83.597 Y64.064 E0.02071
G1 X84.064 Y63.597 E0.02071
G1 X84.605 Y63.218 E0.02071
G1 X85.170 Y62.955 E0.01955
G1 X85.843 Y62.768 E0.02188
G1 X86.509 Y62.710 E0.02097
G1 X163.529 Y62.713 E2.41489
G1 X164.158 Y62.768 E0.01981
G1 X164.796 Y62.939 E0.02071
G1 X165.395 Y63.218 E0.02071
G1 X165.936 Y63.597 E0.02071
G1 X166.403 Y64.064 E0.02071
G1 X166.782 Y64.605 E0.02071
G1 X167.061 Y65.204 E0.02071
G1 X167.232 Y65.842 E0.02071
G1 X167.290 Y66.509 E0.02100
G1 X167.290 Y143.491 E2.41371
G1 X167.232 Y144.158 E0.02100
G1 X167.061 Y144.796 E0.02071
G1 X166.782 Y145.395 E0.02071
G1 X166.403 Y145.936 E0.02071
G1 X165.936 Y146.403 E0.02071
G1 X165.395 Y146.782 E0.02071
G1 X164.796 Y147.061 E0.02071
G1 X164.158 Y147.232 E0.02071
G1 X163.491 Y147.290 E0.02100
G1 X86.509 Y147.290 E2.41371
G1 X85.842 Y147.232 E0.02100
G1 X85.204 Y147.061 E0.02071
G1 X84.605 Y146.782 E0.02071
G1 X84.064 Y146.403 E0.02071
G1 X83.597 Y145.936 E0.02071
G1 X83.218 Y145.395 E0.02071
G1 X82.955 Y144.830 E0.01955
G1 X82.810 Y144.306 E0.01703
G1 X82.858 Y144.179 F10800.000
G1 X83.558 Y144.963
G1 F1200
G1 X85.037 Y146.442 E0.06566
G1 X85.857 Y146.728 F10800.000
G1 F1200
G1 X83.517 Y144.388 E0.10386
G1 X83.420 Y144.039 E0.01138
G1 X83.393 Y143.731 E0.00972
G1 X86.269 Y146.607 E0.12766
G1 X86.827 Y146.630 E0.01751
G1 X83.370 Y143.173 E0.15344
G1 X83.370 Y142.639 E0.01675
G1 X87.361 Y146.630 E0.17713
G1 X87.894 Y146.630 E0.01675
G1 X83.370 Y142.106 E0.20082
M73 Q1 S77
G1 X83.370 Y141.572 E0.01675
G1 X88.428 Y146.630 E0.22452
M73 P1 R77
G1 X88.962 Y146.630 E0.01675
G1 X83.370 Y141.038 E0.24821
G1 X83.370 Y140.504 E0.01675
G1 X89.496 Y146.630 E0.27190
G1 X90.030 Y146.630 E0.01675
G1 X83.370 Y139.970 E0.29560
G1 X83.370 Y139.437 E0.01675
G1 X90.563 Y146.630 E0.31929
G1 X91.097 Y146.630 E0.01675
G1 X83.370 Y138.903 E0.34298
G1 X83.370 Y138.369 E0.01675
G1 X91.631 Y146.630 E0.36668
G1 X92.165 Y146.630 E0.01675
G1 X83.370 Y137.835 E0.39037
G1 X83.370 Y137.301 E0.01675
G1 X92.699 Y146.630 E0.41406
G1 X93.232 Y146.630 E0.01675
G1 X83.370 Y136.768 E0.43776
G1 X83.370 Y136.234 E0.01675
G1 X93.766 Y146.630 E0.46145
G1 X94.300 Y146.630 E0.01675
G1 X83.370 Y135.700 E0.48514
G1 X83.370 Y135.166 E0.01675
G1 X94.834 Y146.630 E0.50884
G1 X95.368 Y146.630 E0.01675
G1 X83.370 Y134.632 E0.53253
G1 X83.370 Y134.099 E0.01675
G1 X95.901 Y146.630 E0.55622
G1 X96.435 Y146.630 E0.01675
G1 X83.370 Y133.565 E0.57991
G1 X83.370 Y133.031 E0.01675
G1 X96.969 Y146.630 E0.60361
G1 X97.503 Y146.630 E0.01675
G1 X83.370 Y132.497 E0.62730
G1 X83.370 Y131.963 E0.01675
G1 X98.037 Y146.630 E0.65099
G1 X98.570 Y146.630 E0.01675
G1 X83.370 Y131.430 E0.67469
G1 X83.370 Y130.896 E0.01675
G1 X99.104 Y146.630 E0.69838
G1 X99.638 Y146.630 E0.01675
G1 X83.370 Y130.362 E0.72207
G1 X83.370 Y129.828 E0.01675
G1 X100.172 Y146.630 E0.74577
G1 X100.706 Y146.630 E0.01675
G1 X83.370 Y129.294 E0.76946
G1 X83.370 Y128.761 E0.01675
G1 X101.239 Y146.630 E0.79315
G1 X101.773 Y146.630 E0.01675
G1 X83.370 Y128.227 E0.81685
G1 X83.370 Y127.693 E0.01675
G1 X102.477 Y146.800 E0.84807
G1 F8640
G1 X100.149 Y144.472 E-0.76000
G1 E-0.04000 F2100.00000
G1 Z0.800 F10800.000
G1 X94.041 Y137.831
G1 Z0.200
G1 E0.80000 F2100.00000
G1 F1200
G1 X102.841 Y146.630 E0.39057
G1 X103.375 Y146.630 E0.01675
G1 X94.916 Y138.172 E0.37542
G1 X95.335 Y138.293 E0.01368
G1 X95.594 Y138.316 E0.00816
G1 X103.908 Y146.630 E0.36903
G1 X104.442 Y146.630 E0.01675
G1 X96.181 Y138.369 E0.36668
G1 X96.679 Y138.333 E0.01568
G1 X104.976 Y146.630 E0.36825
G1 X105.510 Y146.630 E0.01675
G1 X97.164 Y138.285 E0.37042
G1 X97.579 Y138.165 E0.01354
G1 X106.044 Y146.630 E0.37571
G1 X106.577 Y146.630 E0.01675
G1 X97.992 Y138.044 E0.38109
G1 X98.350 Y137.869 E0.01252
G1 X107.111 Y146.630 E0.38889
G1 X107.645 Y146.630 E0.01675
G1 X98.703 Y137.689 E0.39688
G1 X98.846 Y137.616 E0.00502
G1 X99.025 Y137.477 E0.00713
G1 X108.179 Y146.630 E0.40629
G1 X108.713 Y146.630 E0.01675
G1 X99.325 Y137.243 E0.41666
G1 X99.617 Y137.001 E0.01190
G1 X109.246 Y146.630 E0.42739
G1 X109.780 Y146.630 E0.01675
G1 X99.867 Y136.717 E0.44002
G1 X100.116 Y136.432 E0.01187
G1 X110.314 Y146.630 E0.45266
G1 X110.848 Y146.630 E0.01675
G1 X100.328 Y136.110 E0.46694
G1 X100.525 Y135.773 E0.01225
G1 X111.382 Y146.630 E0.48190
G1 X111.915 Y146.630 E0.01675
G1 X100.702 Y135.417 E0.49772
G1 X100.841 Y135.022 E0.01314
G1 X112.449 Y146.630 E0.51525
G1 X112.983 Y146.630 E0.01675
G1 X100.971 Y134.618 E0.53316
G1 X101.040 Y134.154 E0.01474
G1 X113.517 Y146.630 E0.55378
G1 X114.051 Y146.630 E0.01675
G1 X101.095 Y133.675 E0.57504
G1 X101.072 Y133.117 E0.01751
G1 X114.584 Y146.630 E0.59978
G1 X115.118 Y146.630 E0.01675
G1 X100.978 Y132.490 E0.62763
G1 X100.846 Y131.933 E0.01795
G1 X100.756 Y131.734 E0.00684
G1 X115.822 Y146.800 E0.66869
G1 F8640
G1 X113.494 Y144.472 E-0.76000
G1 E-0.04000 F2100.00000
G1 Z0.800 F10800.000
G1 X91.881 Y135.670
G1 Z0.200
G1 E0.80000 F2100.00000
G1 F1200
G1 X83.370 Y127.159 E0.37777
G1 X83.370 Y126.625 E0.01675
G1 X91.548 Y134.804 E0.36299
G1 X91.503 Y134.676 E0.00423
G1 X91.424 Y134.146 E0.01683
G1 X83.370 Y126.092 E0.35750
G1 X83.370 Y125.558 E0.01675
G1 X91.376 Y133.564 E0.35534
G1 X91.400 Y133.054 E0.01601
G1 X83.370 Y125.024 E0.35642
G1 X83.370 Y124.490 E0.01675
G1 X91.463 Y132.583 E0.35922
G1 X91.569 Y132.156 E0.01383
G1 X83.370 Y123.956 E0.36393
G1 X83.370 Y123.423 E0.01675
G1 X91.698 Y131.751 E0.36967
G1 X91.867 Y131.386 E0.01262
G1 X83.370 Y122.889 E0.37717
G1 X83.370 Y122.355 E0.01675
G1 X92.040 Y131.025 E0.38482
G1 X92.263 Y130.715 E0.01200
G1 X83.370 Y121.821 E0.39474
G1 X83.370 Y121.287 E0.01675
G1 X92.487 Y130.404 E0.40466
G1 X92.567 Y130.293 E0.00430
G1 X92.743 Y130.127 E0.00761
G1 X83.370 Y120.754 E0.41603
G1 X83.370 Y120.220 E0.01675
G1 X93.018 Y129.867 E0.42822
G1 X93.302 Y129.618 E0.01187
G1 X83.370 Y119.686 E0.44084
G1 X83.370 Y119.152 E0.01675
G1 X93.628 Y129.411 E0.45533
G1 X93.955 Y129.203 E0.01214
G1 X83.370 Y118.618 E0.46982
G1 X83.370 Y118.085 E0.01675
G1 X94.326 Y129.041 E0.48630
G1 X94.709 Y128.890 E0.01292
G1 X83.370 Y117.551 E0.50329
G1 X83.370 Y117.017 E0.01675
G1 X95.128 Y128.775 E0.52189
G1 X95.577 Y128.691 E0.01436
G1 X83.370 Y116.483 E0.54184
G1 X83.370 Y115.949 E0.01675
G1 X96.072 Y128.651 E0.56379
G1 X96.608 Y128.654 E0.01684
G1 X83.370 Y115.416 E0.58761
M73 Q2 S76
M73 P2 R76
G1 X83.370 Y114.882 E0.01675
G1 X97.247 Y128.759 E0.61595
G1 X97.630 Y128.835 E0.01225
G1 X98.012 Y128.990 E0.01295
G1 X83.370 Y114.348 E0.64990
G1 X83.370 Y113.814 E0.01675
G1 X116.186 Y146.630 E1.45656
G1 X116.720 Y146.630 E0.01675
G1 X83.370 Y113.280 E1.48026
G1 X83.370 Y112.747 E0.01675
G1 X117.253 Y146.630 E1.50395
G1 X117.787 Y146.630 E0.01675
G1 X83.370 Y112.213 E1.52764
G1 X83.370 Y111.679 E0.01675
G1 X118.321 Y146.630 E1.55134
G1 X118.855 Y146.630 E0.01675
G1 X83.370 Y111.145 E1.57503
G1 X83.370 Y110.611 E0.01675
G1 X119.389 Y146.630 E1.59872
G1 X119.922 Y146.630 E0.01675
G1 X83.370 Y110.078 E1.62242
G1 X83.370 Y109.544 E0.01675
G1 X120.456 Y146.630 E1.64611
G1 X120.990 Y146.630 E0.01675
G1 X83.370 Y109.010 E1.66980
G1 X83.370 Y108.476 E0.01675
G1 X121.524 Y146.630 E1.69350
G1 X122.058 Y146.630 E0.01675
G1 X83.370 Y107.942 E1.71719
G1 X83.370 Y107.409 E0.01675
G1 X122.591 Y146.630 E1.74088
G1 X123.125 Y146.630 E0.01675
G1 X83.370 Y106.875 E1.76458
G1 X83.370 Y106.341 E0.01675
G1 X123.659 Y146.630 E1.78827
G1 X124.193 Y146.630 E0.01675
G1 X83.370 Y105.807 E1.81196
G1 X83.370 Y105.273 E0.01675
G1 X124.727 Y146.630 E1.83566
G1 X125.260 Y146.630 E0.01675
G1 X83.370 Y104.740 E1.85935
G1 X83.370 Y104.206 E0.01675
G1 X125.794 Y146.630 E1.88304
G1 X126.328 Y146.630 E0.01675
G1 X83.370 Y103.672 E1.90674
G1 X83.370 Y103.138 E0.01675
G1 X126.862 Y146.630 E1.93043
G1 X127.396 Y146.630 E0.01675
G1 X83.370 Y102.604 E1.95412
M73 Q3 S75
M73 P3 R75
G1 X83.370 Y102.070 E0.01675
G1 X127.930 Y146.630 E1.97782
G1 X128.463 Y146.630 E0.01675
G1 X83.370 Y101.537 E2.00151
G1 X83.370 Y101.003 E0.01675
G1 X128.997 Y146.630 E2.02520
G1 X129.531 Y146.630 E0.01675
G1 X83.370 Y100.469 E2.04890
G1 X83.370 Y99.935 E0.01675
G1 X130.065 Y146.630 E2.07259
G1 X130.599 Y146.630 E0.01675
G1 X83.370 Y99.401 E2.09628
G1 X83.370 Y98.868 E0.01675
G1 X131.132 Y146.630 E2.11998
G1 X131.666 Y146.630 E0.01675
G1 X83.370 Y98.334 E2.14367
G1 X83.370 Y97.800 E0.01675
G1 X132.200 Y146.630 E2.16736
G1 X132.734 Y146.630 E0.01675
G1 X83.370 Y97.266 E2.19106
G1 X83.370 Y96.732 E0.01675
G1 X133.268 Y146.630 E2.21475
G1 X133.801 Y146.630 E0.01675
G1 X83.370 Y96.199 E2.23844
G1 X83.370 Y95.665 E0.01675
G1 X134.335 Y146.630 E2.26213
G1 X134.869 Y146.630 E0.01675
G1 X83.370 Y95.131 E2.28583
G1 X83.370 Y94.597 E0.01675
G1 X135.403 Y146.630 E2.30952
G1 X135.937 Y146.630 E0.01675
G1 X83.370 Y94.063 E2.33321
G1 X83.370 Y93.530 E0.01675
G1 X136.470 Y146.630 E2.35691
G1 X137.004 Y146.630 E0.01675
G1 X83.370 Y92.996 E2.38060
M73 Q5 S74
M73 P5 R74
G1 X83.370 Y92.462 E0.01675
G1 X137.538 Y146.630 E2.40429
G1 X138.072 Y146.630 E0.01675
G1 X83.370 Y91.928 E2.42799
G1 X83.370 Y91.394 E0.01675
G1 X138.606 Y146.630 E2.45168
G1 X139.139 Y146.630 E0.01675
G1 X83.370 Y90.861 E2.47537
G1 X83.370 Y90.327 E0.01675
G1 X139.673 Y146.630 E2.49907
G1 X140.207 Y146.630 E0.01675
G1 X83.370 Y89.793 E2.52276
G1 X83.370 Y89.259 E0.01675
G1 X140.741 Y146.630 E2.54645
G1 X141.275 Y146.630 E0.01675
G1 X83.370 Y88.725 E2.57015
G1 X83.370 Y88.192 E0.01675
G1 X141.808 Y146.630 E2.59384
G1 X142.342 Y146.630 E0.01675
G1 X83.370 Y87.658 E2.61753
G1 X83.370 Y87.124 E0.01675
G1 X142.876 Y146.630 E2.64123
G1 X143.410 Y146.630 E0.01675
G1 X83.370 Y86.590 E2.66492
G1 X83.370 Y86.056 E0.01675
