; generated by PrusaSlicer 2.0.0+win64 on 2020-12-03 at 00:35:58

; 

; external perimeters extrusion width = 0.45mm
; perimeters extrusion width = 0.45mm
; infill extrusion width = 0.45mm
; solid infill extrusion width = 0.45mm
; top infill extrusion width = 0.40mm
; first layer extrusion width = 0.42mm

M73 P0 R217
M73 Q0 S217
M201 X1000 Y1000 Z200 E5000 ; sets maximum accelerations, mm/sec^2
M203 X200 Y200 Z12 E120 ; sets maximum feedrates, mm/sec
M204 P1250 R1250 T1250 ; sets acceleration (P, T) and retract acceleration (R), mm/sec^2
M205 X8.00 Y8.00 Z0.40 E1.50 ; sets the jerk limits, mm/sec
M205 S0 T0 ; sets the minimum extruding and travel feed rate, mm/sec
M107
M115 U3.9.1 ; tell printer latest fw version
G90 ; use absolute coordinates
M83 ; extruder relative mode
M104 S215 ; set extruder temp
M140 S60 ; set bed temp
M190 S60 ; wait for bed temp
M109 S215 ; wait for extruder temp
G28 W ; home all without mesh bed level
G80 ; mesh bed leveling
G1 Y-3.0 F1000.0 ; go outside print area
G92 E0.0
G1 X60.0 E9.0 F1000.0 ; intro line
M73 Q0 S217
M73 P0 R217
G1 X100.0 E12.5 F1000.0 ; intro line
G92 E0.0
M221 S95
M900 K30 ; Filament gcode
G21 ; set units to millimeters
G90 ; use absolute coordinates
M83 ; use relative distances for extrusion
;BEFORE_LAYER_CHANGE
G92 E0.0
;0.2


G1 E-0.80000 F2100.00000
G1 Z0.600 F10800.000
;AFTER_LAYER_CHANGE
;0.2
G1 X81.347 Y63.073
G1 Z0.200
G1 E0.80000 F2100.00000
M204 S1000
G1 F1200
G1 X82.066 Y62.184 E0.03587
G1 X83.047 Y61.364 E0.04009
G1 X84.109 Y60.792 E0.03781
G1 X85.279 Y60.433 E0.03838
G1 X86.450 Y60.312 E0.03690
G1 X163.504 Y60.311 E2.41597
G1 X164.708 Y60.431 E0.03795
G1 X165.866 Y60.781 E0.03792
G1 X166.936 Y61.353 E0.03804
G1 X167.864 Y62.112 E0.03758
G1 X168.642 Y63.056 E0.03838
G1 X169.209 Y64.112 E0.03758
G1 X169.565 Y65.272 E0.03804
G1 X169.686 Y66.391 E0.03530
G1 X169.688 Y143.548 E2.41918
G1 X169.568 Y144.715 E0.03681
G1 X169.220 Y145.862 E0.03758
G1 X168.653 Y146.927 E0.03781
G1 X167.931 Y147.819 E0.03598
G1 X166.953 Y148.636 E0.03997
G1 X165.881 Y149.212 E0.03815
G1 X164.710 Y149.569 E0.03838
G1 X163.503 Y149.689 E0.03804
G1 X86.452 Y149.688 E2.41586
G1 X85.285 Y149.568 E0.03681
G1 X84.138 Y149.220 E0.03758
G1 X83.073 Y148.653 E0.03781
G1 X82.184 Y147.934 E0.03587
G1 X81.364 Y146.953 E0.04009
G1 X80.788 Y145.881 E0.03815
G1 X80.431 Y144.710 E0.03838
G1 X80.311 Y143.503 E0.03804
G1 X80.312 Y66.452 E2.41586
G1 X80.432 Y65.285 E0.03681
G1 X80.780 Y64.138 E0.03758
G1 X81.319 Y63.126 E0.03593
G1 F8640
G1 X82.066 Y62.184 E-0.27776
G1 X83.047 Y61.364 E-0.29521
G1 X83.760 Y60.980 E-0.18704
G1 E-0.04000 F2100.00000
G1 Z0.800 F10800.000
G1 X104.413 Y87.413
G1 Z0.200
G1 E0.80000 F2100.00000
G1 F1200
G1 X145.587 Y87.413 E1.29099
G1 X145.587 Y125.587 E1.19692
G1 X104.413 Y125.587 E1.29099
G1 X104.413 Y87.473 E1.19504
G1 X104.790 Y87.790 F10800.000
G1 F1200
G1 X145.210 Y87.790 E1.26734
G1 X145.210 Y125.210 E1.17328
G1 X104.790 Y125.210 E1.26734
G1 X104.790 Y87.850 E1.17140
G1 X104.682 Y87.405 F10800.000
G1 F8640
G1 X108.081 Y87.845 E-0.76000
G1 E-0.04000 F2100.00000
G1 Z0.800 F10800.000
G1 X83.155 Y65.835
G1 Z0.200
G1 E0.80000 F2100.00000
G1 F1200
G1 X83.349 Y65.195 E0.02096
G1 X83.665 Y64.605 E0.02096
G1 X84.089 Y64.089 E0.02096
G1 X84.605 Y63.665 E0.02096
G1 X85.195 Y63.349 E0.02096
G1 X85.835 Y63.155 E0.02096
G1 X86.529 Y63.087 E0.02187
G1 X163.473 Y63.087 E2.41255
G1 X164.165 Y63.155 E0.02180
G1 X164.805 Y63.349 E0.02096
G1 X165.395 Y63.665 E0.02096
G1 X165.911 Y64.089 E0.02096
G1 X166.335 Y64.605 E0.02096
G1 X166.651 Y65.195 E0.02096
G1 X166.845 Y65.835 E0.02096
G1 X166.913 Y66.529 E0.02187
G1 X166.913 Y143.471 E2.41247
G1 X166.845 Y144.165 E0.02187
G1 X166.651 Y144.805 E0.02096
G1 X166.335 Y145.395 E0.02096
G1 X165.911 Y145.911 E0.02096
G1 X165.395 Y146.335 E0.02096
G1 X164.805 Y146.651 E0.02096
G1 X164.165 Y146.845 E0.02096
G1 X163.471 Y146.913 E0.02187
G1 X86.529 Y146.913 E2.41247
G1 X85.835 Y146.845 E0.02187
G1 X85.195 Y146.651 E0.02096
G1 X84.605 Y146.335 E0.02096
G1 X84.089 Y145.911 E0.02096
G1 X83.665 Y145.395 E0.02096
G1 X83.349 Y144.805 E0.02096
G1 X83.155 Y144.165 E0.02096
G1 X83.087 Y143.471 E0.02187
G1 X83.087 Y66.529 E2.41247
G1 X83.150 Y65.894 E0.01999
G1 X82.774 Y65.857 F10800.000
G1 F1200
G1 X82.784 Y65.761 E0.00305
G1 X82.999 Y65.050 E0.02329
G1 X83.350 Y64.395 E0.02329
G1 X83.821 Y63.821 E0.02329
G1 X84.395 Y63.350 E0.02329
G1 X85.050 Y62.999 E0.02329
G1 X85.761 Y62.784 E0.02329
G1 X86.510 Y62.710 E0.02361
G1 X163.492 Y62.710 E2.41371
G1 X164.239 Y62.784 E0.02354
G1 X164.950 Y62.999 E0.02329
G1 X165.605 Y63.350 E0.02329
G1 X166.179 Y63.821 E0.02329
G1 X166.650 Y64.395 E0.02329
G1 X167.001 Y65.050 E0.02329
G1 X167.216 Y65.761 E0.02329
G1 X167.290 Y66.510 E0.02361
G1 X167.290 Y143.490 E2.41363
M73 Q0 S216
M73 P0 R216
G1 X167.216 Y144.239 E0.02361
G1 X167.001 Y144.950 E0.02329
G1 X166.650 Y145.605 E0.02329
G1 X166.179 Y146.179 E0.02329
G1 X165.605 Y146.650 E0.02329
G1 X164.950 Y147.001 E0.02329
G1 X164.239 Y147.216 E0.02329
G1 X163.490 Y147.290 E0.02361
G1 X86.510 Y147.290 E2.41363
G1 X85.761 Y147.216 E0.02361
G1 X85.050 Y147.001 E0.02329
G1 X84.395 Y146.650 E0.02329
G1 X83.821 Y146.179 E0.02329
G1 X83.350 Y145.605 E0.02329
G1 X82.999 Y144.950 E0.02329
G1 X82.784 Y144.239 E0.02329
G1 X82.710 Y143.490 E0.02361
G1 X82.710 Y66.510 E2.41363
G1 X82.768 Y65.917 E0.01869
G1 X82.861 Y65.815 F10800.000
G1 F8640
G1 X82.784 Y65.761 E-0.03628
G1 X82.999 Y65.050 E-0.17151
G1 X83.350 Y64.395 E-0.17151
G1 X83.821 Y63.821 E-0.17151
G1 X84.395 Y63.350 E-0.17151
G1 X84.539 Y63.273 E-0.03769
G1 E-0.04000 F2100.00000
G1 Z0.800 F10800.000
G1 X121.375 Y63.200
G1 Z0.200
G1 E0.80000 F2100.00000
G1 F1200
G1 X145.305 Y87.130 E1.06237
G1 X144.771 Y87.130 E0.01676
G1 X121.011 Y63.370 E1.05483
G1 X120.477 Y63.370 E0.01676
G1 X144.237 Y87.130 E1.05483
G1 X143.703 Y87.130 E0.01676
G1 X119.943 Y63.370 E1.05483
G1 X119.409 Y63.370 E0.01676
G1 X143.169 Y87.130 E1.05483
G1 X142.635 Y87.130 E0.01676
G1 X118.875 Y63.370 E1.05483
G1 X118.341 Y63.370 E0.01676
G1 X142.101 Y87.130 E1.05483
G1 X141.567 Y87.130 E0.01676
G1 X117.807 Y63.370 E1.05483
G1 X117.273 Y63.370 E0.01676
G1 X141.034 Y87.130 E1.05483
G1 X140.500 Y87.130 E0.01676
G1 X116.739 Y63.370 E1.05483
G1 X116.206 Y63.370 E0.01676
G1 X139.966 Y87.130 E1.05483
G1 X139.432 Y87.130 E0.01676
G1 X115.672 Y63.370 E1.05483
G1 X115.138 Y63.370 E0.01676
G1 X138.898 Y87.130 E1.05483
G1 X138.364 Y87.130 E0.01676
G1 X114.604 Y63.370 E1.05483
G1 X114.070 Y63.370 E0.01676
G1 X137.830 Y87.130 E1.05483
G1 X137.296 Y87.130 E0.01676
G1 X113.536 Y63.370 E1.05483
G1 X113.002 Y63.370 E0.01676
G1 X136.762 Y87.130 E1.05483
G1 X136.228 Y87.130 E0.01676
G1 X112.468 Y63.370 E1.05483
G1 X111.934 Y63.370 E0.01676
G1 X135.694 Y87.130 E1.05483
G1 X135.161 Y87.130 E0.01676
G1 X111.400 Y63.370 E1.05483
G1 X110.866 Y63.370 E0.01676
G1 X134.627 Y87.130 E1.05483
G1 X134.093 Y87.130 E0.01676
G1 X110.333 Y63.370 E1.05483
G1 X109.799 Y63.370 E0.01676
G1 X133.559 Y87.130 E1.05483
G1 X133.025 Y87.130 E0.01676
G1 X109.265 Y63.370 E1.05483
G1 X108.731 Y63.370 E0.01676
G1 X132.491 Y87.130 E1.05483
G1 X131.957 Y87.130 E0.01676
G1 X108.197 Y63.370 E1.05483
G1 X107.663 Y63.370 E0.01676
G1 X131.423 Y87.130 E1.05483
G1 X130.889 Y87.130 E0.01676
G1 X107.129 Y63.370 E1.05483
G1 X106.595 Y63.370 E0.01676
G1 X130.355 Y87.130 E1.05483
G1 X129.821 Y87.130 E0.01676
G1 X106.061 Y63.370 E1.05483
M73 Q0 S215
M73 P0 R215
G1 X105.527 Y63.370 E0.01676
G1 X129.287 Y87.130 E1.05483
G1 X128.754 Y87.130 E0.01676
G1 X104.993 Y63.370 E1.05483
G1 X104.459 Y63.370 E0.01676
G1 X128.220 Y87.130 E1.05483
G1 X127.686 Y87.130 E0.01676
G1 X103.926 Y63.370 E1.05483
G1 X103.392 Y63.370 E0.01676
G1 X127.152 Y87.130 E1.05483
G1 X126.618 Y87.130 E0.01676
G1 X102.858 Y63.370 E1.05483
G1 X102.324 Y63.370 E0.01676
G1 X126.084 Y87.130 E1.05483
G1 X125.550 Y87.130 E0.01676
G1 X101.790 Y63.370 E1.05483
G1 X101.256 Y63.370 E0.01676
G1 X125.016 Y87.130 E1.05483
G1 X124.482 Y87.130 E0.01676
G1 X100.722 Y63.370 E1.05483
G1 X100.188 Y63.370 E0.01676
G1 X123.948 Y87.130 E1.05484
G1 X123.414 Y87.130 E0.01676
G1 X99.654 Y63.370 E1.05484
G1 X99.120 Y63.370 E0.01676
G1 X122.881 Y87.130 E1.05484
G1 X122.347 Y87.130 E0.01676
G1 X98.586 Y63.370 E1.05484
G1 X98.052 Y63.370 E0.01676
G1 X121.813 Y87.130 E1.05484
G1 X121.279 Y87.130 E0.01676
G1 X97.519 Y63.370 E1.05484
G1 X96.985 Y63.370 E0.01676
G1 X120.745 Y87.130 E1.05484
G1 X120.211 Y87.130 E0.01676
G1 X96.451 Y63.370 E1.05484
G1 X95.917 Y63.370 E0.01676
G1 X119.677 Y87.130 E1.05484
G1 X119.143 Y87.130 E0.01676
G1 X95.383 Y63.370 E1.05484
G1 X94.849 Y63.370 E0.01676
G1 X118.609 Y87.130 E1.05484
G1 X118.075 Y87.130 E0.01676
G1 X94.315 Y63.370 E1.05484
G1 X93.781 Y63.370 E0.01676
G1 X117.541 Y87.130 E1.05484
G1 X117.008 Y87.130 E0.01676
G1 X93.247 Y63.370 E1.05484
G1 X92.713 Y63.370 E0.01676
G1 X116.474 Y87.130 E1.05484
G1 X115.940 Y87.130 E0.01676
G1 X92.179 Y63.370 E1.05484
G1 X91.646 Y63.370 E0.01676
G1 X115.406 Y87.130 E1.05484
G1 X114.872 Y87.130 E0.01676
G1 X91.112 Y63.370 E1.05484
G1 X90.578 Y63.370 E0.01676
G1 X114.338 Y87.130 E1.05484
G1 X113.804 Y87.130 E0.01676
G1 X90.044 Y63.370 E1.05484
G1 X89.510 Y63.370 E0.01676
G1 X113.270 Y87.130 E1.05484
G1 X112.736 Y87.130 E0.01676
G1 X88.976 Y63.370 E1.05484
G1 X88.442 Y63.370 E0.01676
G1 X112.202 Y87.130 E1.05484
G1 X111.668 Y87.130 E0.01676
G1 X87.908 Y63.370 E1.05484
G1 X87.374 Y63.370 E0.01676
G1 X111.134 Y87.130 E1.05484
M73 Q1 S214
M73 P1 R214
G1 X110.601 Y87.130 E0.01676
G1 X86.840 Y63.370 E1.05484
G1 X86.328 Y63.391 E0.01611
G1 X110.067 Y87.130 E1.05390
G1 X109.533 Y87.130 E0.01676
G1 X85.849 Y63.447 E1.05143
G1 X85.440 Y63.571 E0.01344
G1 X108.999 Y87.130 E1.04591
G1 X108.465 Y87.130 E0.01676
G1 X85.071 Y63.736 E1.03857
G1 X84.730 Y63.929 E0.01231
G1 X107.931 Y87.130 E1.03003
G1 X107.397 Y87.130 E0.01676
G1 X84.436 Y64.169 E1.01935
G1 X84.290 Y64.290 E0.00595
G1 X84.169 Y64.436 E0.00595
G1 X106.863 Y87.130 E1.00749
G1 X106.329 Y87.130 E0.01676
G1 X83.929 Y64.730 E0.99448
G1 X83.736 Y65.071 E0.01231
G1 X105.795 Y87.130 E0.97931
G1 X105.261 Y87.130 E0.01676
G1 X83.571 Y65.440 E0.96295
G1 X83.447 Y65.849 E0.01344
G1 X104.728 Y87.130 E0.94477
G1 X104.194 Y87.130 E0.01676
G1 X83.391 Y66.328 E0.92353
G1 X83.370 Y66.840 E0.01611
G1 X104.130 Y87.601 E0.92165
G1 X104.130 Y88.134 E0.01676
G1 X83.370 Y67.374 E0.92165
G1 X83.370 Y67.908 E0.01676
G1 X104.130 Y88.668 E0.92165
G1 X104.130 Y89.202 E0.01676
G1 X83.370 Y68.442 E0.92165
G1 X83.370 Y68.976 E0.01676
G1 X104.130 Y89.736 E0.92165
G1 X104.130 Y90.270 E0.01676
G1 X83.370 Y69.510 E0.92165
G1 X83.370 Y70.044 E0.01676
G1 X104.130 Y90.804 E0.92165
G1 X104.130 Y91.338 E0.01676
G1 X83.370 Y70.578 E0.92165
G1 X83.370 Y71.112 E0.01676
G1 X104.130 Y91.872 E0.92165
G1 X104.130 Y92.406 E0.01676
G1 X83.370 Y71.646 E0.92165
G1 X83.370 Y72.179 E0.01676
G1 X104.130 Y92.940 E0.92165
G1 X104.130 Y93.474 E0.01676
G1 X83.370 Y72.713 E0.92165
G1 X83.370 Y73.247 E0.01676
G1 X104.130 Y94.008 E0.92165
G1 X104.130 Y94.541 E0.01676
G1 X83.370 Y73.781 E0.92165
G1 X83.370 Y74.315 E0.01676
G1 X104.130 Y95.075 E0.92165
G1 X104.130 Y95.609 E0.01676
G1 X83.370 Y74.849 E0.92165
G1 X83.370 Y75.383 E0.01676
G1 X104.130 Y96.143 E0.92165
G1 X104.130 Y96.677 E0.01676
G1 X83.370 Y75.917 E0.92165
G1 X83.370 Y76.451 E0.01676
G1 X104.130 Y97.211 E0.92165
G1 X104.130 Y97.745 E0.01676
G1 X83.370 Y76.985 E0.92165
G1 X83.370 Y77.519 E0.01676
G1 X104.130 Y98.279 E0.92165
G1 X104.130 Y98.813 E0.01676
G1 X83.370 Y78.052 E0.92165
G1 X83.370 Y78.586 E0.01676
G1 X104.130 Y99.347 E0.92165
G1 X104.130 Y99.881 E0.01676
G1 X83.370 Y79.120 E0.92165
G1 X83.370 Y79.654 E0.01676
G1 X104.130 Y100.414 E0.92165
G1 X104.130 Y100.948 E0.01676
G1 X83.370 Y80.188 E0.92165
M73 Q1 S213
M73 P1 R213
G1 X83.370 Y80.722 E0.01676
G1 X104.130 Y101.482 E0.92165
G1 X104.130 Y102.016 E0.01676
G1 X83.370 Y81.256 E0.92165
G1 X83.370 Y81.790 E0.01676
G1 X104.130 Y102.550 E0.92165
G1 X104.130 Y103.084 E0.01676
G1 X83.370 Y82.324 E0.92165
G1 X83.370 Y82.858 E0.01676
G1 X104.130 Y103.618 E0.92165
G1 X104.130 Y104.152 E0.01676
G1 X83.370 Y83.392 E0.92165
G1 X83.370 Y83.925 E0.01676
G1 X104.130 Y104.686 E0.92165
G1 X104.130 Y105.220 E0.01676
G1 X83.370 Y84.459 E0.92165
G1 X83.370 Y84.993 E0.01676
G1 X104.130 Y105.754 E0.92165
G1 X104.130 Y106.287 E0.01676
G1 X83.370 Y85.527 E0.92165
G1 X83.370 Y86.061 E0.01676
G1 X104.130 Y106.821 E0.92165
G1 X104.130 Y107.355 E0.01676
G1 X83.370 Y86.595 E0.92165
G1 X83.370 Y87.129 E0.01676
G1 X104.130 Y107.889 E0.92165
G1 X104.130 Y108.423 E0.01676
G1 X83.370 Y87.663 E0.92165
G1 X83.370 Y88.197 E0.01676
G1 X104.130 Y108.957 E0.92165
G1 X104.130 Y109.491 E0.01676
G1 X83.370 Y88.731 E0.92165
G1 X83.370 Y89.265 E0.01676
G1 X104.130 Y110.025 E0.92165
G1 X104.130 Y110.559 E0.01676
G1 X83.370 Y89.799 E0.92165
G1 X83.370 Y90.332 E0.01676
G1 X104.130 Y111.093 E0.92165
G1 X104.130 Y111.627 E0.01676
G1 X83.370 Y90.866 E0.92165
G1 X83.370 Y91.400 E0.01676
G1 X104.130 Y112.161 E0.92165
G1 X104.130 Y112.694 E0.01676
G1 X83.370 Y91.934 E0.92165
G1 X83.370 Y92.468 E0.01676
G1 X104.130 Y113.228 E0.92165
G1 X104.130 Y113.762 E0.01676
G1 X83.370 Y93.002 E0.92165
G1 X83.370 Y93.536 E0.01676
G1 X104.130 Y114.296 E0.92165
G1 X104.130 Y114.830 E0.01676
G1 X83.370 Y94.070 E0.92165
G1 X83.370 Y94.604 E0.01676
G1 X104.130 Y115.364 E0.92165
G1 X104.130 Y115.898 E0.01676
G1 X83.370 Y95.138 E0.92165
G1 X83.370 Y95.672 E0.01676
G1 X104.130 Y116.432 E0.92165
G1 X104.130 Y116.966 E0.01676
G1 X83.370 Y96.205 E0.92165
G1 X83.370 Y96.739 E0.01676
G1 X104.130 Y117.500 E0.92165
G1 X104.130 Y118.034 E0.01676
G1 X83.370 Y97.273 E0.92165
G1 X83.370 Y97.807 E0.01676
G1 X104.130 Y118.567 E0.92165
G1 X104.130 Y119.101 E0.01676
G1 X83.370 Y98.341 E0.92165
G1 X83.370 Y98.875 E0.01676
G1 X104.130 Y119.635 E0.92165
G1 X104.130 Y120.169 E0.01676
G1 X83.370 Y99.409 E0.92165
G1 X83.370 Y99.943 E0.01676
G1 X104.130 Y120.703 E0.92165
G1 X104.130 Y121.237 E0.01676
G1 X83.370 Y100.477 E0.92165
G1 X83.370 Y101.011 E0.01676
G1 X104.130 Y121.771 E0.92165
G1 X104.130 Y122.305 E0.01676
G1 X83.370 Y101.545 E0.92165
M73 Q2 S212
M73 P2 R212
G1 X83.370 Y102.079 E0.01676
G1 X104.130 Y122.839 E0.92165
G1 X104.130 Y123.373 E0.01676
G1 X83.370 Y102.612 E0.92165
G1 X83.370 Y103.146 E0.01676
G1 X104.130 Y123.907 E0.92165
G1 X104.130 Y124.441 E0.01676
G1 X83.370 Y103.680 E0.92165
G1 X83.370 Y104.214 E0.01676
G1 X104.130 Y124.974 E0.92165
G1 X104.130 Y125.508 E0.01676
G1 X83.370 Y104.748 E0.92165
G1 X83.370 Y105.282 E0.01676
G1 X124.718 Y146.630 E1.83565
G1 X125.252 Y146.630 E0.01676
G1 X104.492 Y125.870 E0.92165
G1 X105.026 Y125.870 E0.01676
G1 X125.786 Y146.630 E0.92165
G1 X126.320 Y146.630 E0.01676
G1 X105.559 Y125.870 E0.92165
G1 X106.093 Y125.870 E0.01676
G1 X126.854 Y146.630 E0.92165
G1 X127.388 Y146.630 E0.01676
G1 X106.627 Y125.870 E0.92165
G1 X107.161 Y125.870 E0.01676
G1 X127.921 Y146.630 E0.92165
G1 X128.455 Y146.630 E0.01676
G1 X107.695 Y125.870 E0.92165
G1 X108.229 Y125.870 E0.01676
G1 X128.989 Y146.630 E0.92165
G1 X129.523 Y146.630 E0.01676
G1 X108.763 Y125.870 E0.92165
G1 X109.297 Y125.870 E0.01676
G1 X130.057 Y146.630 E0.92165
G1 X130.591 Y146.630 E0.01676
G1 X109.831 Y125.870 E0.92165
G1 X110.365 Y125.870 E0.01676
G1 X131.125 Y146.630 E0.92165
G1 X131.659 Y146.630 E0.01676
G1 X110.899 Y125.870 E0.92165
G1 X111.433 Y125.870 E0.01676
G1 X132.193 Y146.630 E0.92165
G1 X132.727 Y146.630 E0.01676
G1 X111.966 Y125.870 E0.92165
G1 X112.500 Y125.870 E0.01676
G1 X133.261 Y146.630 E0.92165
G1 X133.795 Y146.630 E0.01676
G1 X113.034 Y125.870 E0.92165
G1 X113.568 Y125.870 E0.01676
G1 X134.328 Y146.630 E0.92165
G1 X134.862 Y146.630 E0.01676
G1 X114.102 Y125.870 E0.92165
G1 X114.636 Y125.870 E0.01676
G1 X135.396 Y146.630 E0.92165
G1 X135.930 Y146.630 E0.01676
G1 X115.170 Y125.870 E0.92165
G1 X115.704 Y125.870 E0.01676
G1 X136.464 Y146.630 E0.92165
G1 X136.998 Y146.630 E0.01676
G1 X116.238 Y125.870 E0.92165
G1 X116.772 Y125.870 E0.01676
G1 X137.532 Y146.630 E0.92165
G1 X138.066 Y146.630 E0.01676
G1 X117.306 Y125.870 E0.92165
G1 X117.839 Y125.870 E0.01676
