; generated by PrusaSlicer 2.0.0+win64 on 2020-12-05 at 01:41:01

; 

; external perimeters extrusion width = 0.60mm
; perimeters extrusion width = 0.50mm
; infill extrusion width = 0.50mm
; solid infill extrusion width = 0.50mm
; top infill extrusion width = 0.45mm
; first layer extrusion width = 0.42mm

M73 P0 R206
M73 Q0 S207
M201 X1000 Y1000 Z200 E5000 ; sets maximum accelerations, mm/sec^2
M203 X200 Y200 Z12 E120 ; sets maximum feedrates, mm/sec
M204 P1250 R1250 T1250 ; sets acceleration (P, T) and retract acceleration (R), mm/sec^2
M205 X8.00 Y8.00 Z0.40 E1.50 ; sets the jerk limits, mm/sec
M205 S0 T0 ; sets the minimum extruding and travel feed rate, mm/sec
M107
M115 U3.9.1 ; tell printer latest fw version
G90 ; use absolute coordinates
M83 ; extruder relative mode
M104 S215 ; set extruder temp
M140 S60 ; set bed temp
M190 S60 ; wait for bed temp
M109 S215 ; wait for extruder temp
G28 W ; home all without mesh bed level
G80 ; mesh bed leveling
G1 Y-3.0 F1000.0 ; go outside print area
G92 E0.0
G1 X60.0 E9.0 F1000.0 ; intro line
M73 Q0 S207
M73 P0 R206
G1 X100.0 E12.5 F1000.0 ; intro line
G92 E0.0
M221 S95
M900 K30 ; Filament gcode
G21 ; set units to millimeters
G90 ; use absolute coordinates
M83 ; use relative distances for extrusion
;BEFORE_LAYER_CHANGE
G92 E0.0
;0.2


G1 E-0.80000 F2100.00000
G1 Z0.600 F10800.000
;AFTER_LAYER_CHANGE
;0.2
G1 X30.513 Y28.435
G1 Z0.200
G1 E0.80000 F2100.00000
M204 S1000
G1 F1200
G1 X31.024 Y27.139 E0.04368
G1 X31.280 Y26.693 E0.01612
G1 X32.221 Y25.532 E0.04686
G1 X33.389 Y24.650 E0.04587
G1 X34.644 Y24.107 E0.04289
G1 X35.118 Y23.975 E0.01544
G1 X36.473 Y23.813 E0.04278
G1 X213.504 Y23.811 E5.55067
G1 X214.886 Y23.976 E0.04365
G1 X215.370 Y24.113 E0.01578
G1 X216.628 Y24.660 E0.04300
G1 X217.867 Y25.615 E0.04906
G1 X218.735 Y26.715 E0.04392
G1 X218.981 Y27.150 E0.01567
G1 X219.485 Y28.425 E0.04300
G1 X219.687 Y29.933 E0.04770
G1 X219.688 Y180.026 E4.70605
G1 X219.486 Y181.569 E0.04879
G1 X218.975 Y182.864 E0.04369
G1 X218.717 Y183.310 E0.01612
G1 X217.779 Y184.468 E0.04674
G1 X216.608 Y185.351 E0.04598
G1 X215.356 Y185.893 E0.04277
G1 X214.885 Y186.024 E0.01532
G1 X213.527 Y186.187 E0.04290
G1 X36.496 Y186.189 E5.55067
G1 X34.935 Y185.987 E0.04936
G1 X33.639 Y185.476 E0.04369
G1 X33.190 Y185.217 E0.01623
G1 X32.032 Y184.279 E0.04674
G1 X31.150 Y183.111 E0.04587
G1 X30.607 Y181.856 E0.04289
G1 X30.476 Y181.385 E0.01532
G1 X30.313 Y180.031 E0.04278
G1 X30.311 Y29.996 E4.70422
G1 X30.505 Y28.495 E0.04748
G1 F8640
G1 X31.024 Y27.139 E-0.33515
G1 X31.280 Y26.693 E-0.11872
G1 X32.115 Y25.663 E-0.30613
G1 E-0.04000 F2100.00000
G1 Z0.800 F10800.000
G1 X161.913 Y28.087
G1 Z0.200
G1 E0.80000 F2100.00000
G1 F1200
G1 X179.087 Y28.087 E0.53848
G1 X179.087 Y26.587 E0.04703
G1 X185.771 Y26.587 E0.20956
G1 X185.771 Y28.087 E0.04703
G1 X200.745 Y28.087 E0.46950
G1 X200.745 Y26.587 E0.04703
G1 X213.462 Y26.587 E0.39872
G1 X214.382 Y26.708 E0.02911
G1 X215.204 Y27.049 E0.02789
G1 X215.910 Y27.590 E0.02789
G1 X216.451 Y28.296 E0.02789
G1 X216.792 Y29.118 E0.02789
G1 X216.913 Y30.038 E0.02911
G1 X216.913 Y38.154 E0.25446
G1 X215.413 Y38.154 E0.04703
G1 X215.413 Y59.328 E0.66390
G1 X216.913 Y59.328 E0.04703
G1 X216.913 Y179.961 E3.78236
G1 X216.789 Y180.888 E0.02933
G1 X216.451 Y181.704 E0.02768
G1 X215.910 Y182.410 E0.02789
G1 X215.204 Y182.951 E0.02789
G1 X214.382 Y183.292 E0.02789
G1 X213.462 Y183.413 E0.02911
G1 X208.087 Y183.413 E0.16851
G1 X208.087 Y181.913 E0.04703
G1 X136.913 Y181.913 E2.23162
G1 X136.913 Y183.413 E0.04703
G1 X36.539 Y183.413 E3.14715
G1 X35.612 Y183.289 E0.02933
M73 Q0 S206
G1 X34.796 Y182.951 E0.02768
G1 X34.090 Y182.410 E0.02789
G1 X33.549 Y181.704 E0.02789
G1 X33.208 Y180.882 E0.02789
G1 X33.087 Y179.962 E0.02911
G1 X33.087 Y166.587 E0.41935
M73 P0 R205
G1 X39.587 Y166.587 E0.20380
G1 X39.587 Y74.413 E2.89006
G1 X33.087 Y74.413 E0.20380
G1 X33.087 Y30.038 E1.39133
G1 X33.208 Y29.118 E0.02911
G1 X33.549 Y28.296 E0.02789
G1 X34.090 Y27.590 E0.02789
G1 X34.796 Y27.049 E0.02789
G1 X35.618 Y26.708 E0.02789
G1 X36.538 Y26.587 E0.02911
G1 X161.913 Y26.587 E3.93103
G1 X161.913 Y28.027 E0.04515
G1 X162.290 Y27.710 F10800.000
G1 F1200
G1 X178.710 Y27.710 E0.51484
G1 X178.710 Y26.210 E0.04703
G1 X186.148 Y26.210 E0.23321
G1 X186.148 Y27.710 E0.04703
G1 X200.368 Y27.710 E0.44586
G1 X200.368 Y26.210 E0.04703
G1 X213.486 Y26.210 E0.41132
G1 X214.480 Y26.341 E0.03144
G1 X215.394 Y26.719 E0.03101
G1 X216.179 Y27.321 E0.03101
G1 X216.781 Y28.106 E0.03101
G1 X217.159 Y29.020 E0.03101
G1 X217.290 Y30.014 E0.03144
G1 X217.290 Y38.531 E0.26705
G1 X215.790 Y38.531 E0.04703
G1 X215.790 Y58.951 E0.64025
G1 X217.290 Y58.951 E0.04703
G1 X217.290 Y179.986 E3.79497
G1 X217.156 Y180.987 E0.03166
G1 X216.781 Y181.894 E0.03078
G1 X216.179 Y182.679 E0.03101
G1 X215.394 Y183.281 E0.03101
G1 X214.480 Y183.659 E0.03101
G1 X213.486 Y183.790 E0.03144
G1 X207.710 Y183.790 E0.18111
G1 X207.710 Y182.290 E0.04703
G1 X137.290 Y182.290 E2.20797
G1 X137.290 Y183.790 E0.04703
G1 X36.514 Y183.790 E3.15976
G1 X35.513 Y183.656 E0.03166
G1 X34.606 Y183.281 E0.03078
G1 X33.821 Y182.679 E0.03101
G1 X33.219 Y181.894 E0.03101
G1 X32.841 Y180.980 E0.03101
G1 X32.710 Y179.986 E0.03144
G1 X32.710 Y166.210 E0.43194
G1 X39.210 Y166.210 E0.20380
G1 X39.210 Y74.790 E2.86641
G1 X32.710 Y74.790 E0.20380
G1 X32.710 Y30.014 E1.40393
G1 X32.841 Y29.020 E0.03144
G1 X33.219 Y28.106 E0.03101
G1 X33.821 Y27.321 E0.03101
G1 X34.606 Y26.719 E0.03101
G1 X35.520 Y26.341 E0.03101
G1 X36.514 Y26.210 E0.03144
G1 X162.290 Y26.210 E3.94363
G1 X162.290 Y27.650 E0.04515
G1 X162.489 Y28.057 F10800.000
G1 X161.800 Y27.808
G1 F1200
G1 X160.862 Y26.870 E0.04164
G1 X161.396 Y26.870 E0.01676
G1 X161.800 Y27.274 E0.01793
G1 F8640
G1 X161.396 Y26.870 E-0.13190
G1 X160.862 Y26.870 E-0.12328
G1 X161.800 Y27.808 E-0.30625
G1 E-0.23857 F2100.00000
G1 Z0.800 F10800.000
G1 X162.192 Y28.200
G1 Z0.200
G1 E0.80000 F2100.00000
G1 F1200
G1 X216.630 Y82.638 E2.41680
G1 X216.630 Y82.104 E0.01676
G1 X162.896 Y28.370 E2.38556
G1 X163.430 Y28.370 E0.01676
G1 X216.630 Y81.570 E2.36186
M73 Q1 S205
M73 P1 R204
G1 X216.630 Y81.036 E0.01676
G1 X163.964 Y28.370 E2.33815
G1 X164.498 Y28.370 E0.01676
G1 X216.630 Y80.502 E2.31445
G1 X216.630 Y79.968 E0.01676
G1 X165.032 Y28.370 E2.29075
G1 X165.566 Y28.370 E0.01676
G1 X216.630 Y79.434 E2.26704
G1 X216.630 Y78.901 E0.01676
G1 X166.099 Y28.370 E2.24334
G1 X166.633 Y28.370 E0.01676
G1 X216.630 Y78.367 E2.21964
G1 X216.630 Y77.833 E0.01676
G1 X167.167 Y28.370 E2.19593
G1 X167.701 Y28.370 E0.01676
G1 X216.630 Y77.299 E2.17223
G1 X216.630 Y76.765 E0.01676
G1 X168.235 Y28.370 E2.14853
G1 X168.769 Y28.370 E0.01676
G1 X216.630 Y76.231 E2.12482
G1 X216.630 Y75.697 E0.01676
G1 X169.303 Y28.370 E2.10112
G1 X169.837 Y28.370 E0.01676
G1 X216.630 Y75.163 E2.07741
G1 X216.630 Y74.629 E0.01676
G1 X170.371 Y28.370 E2.05371
G1 X170.905 Y28.370 E0.01676
G1 X216.630 Y74.095 E2.03001
G1 X216.630 Y73.561 E0.01676
G1 X171.439 Y28.370 E2.00630
G1 X171.973 Y28.370 E0.01676
G1 X216.630 Y73.027 E1.98260
G1 X216.630 Y72.494 E0.01676
G1 X172.506 Y28.370 E1.95890
G1 X173.040 Y28.370 E0.01676
G1 X216.630 Y71.960 E1.93519
M73 Q1 S204
M73 P1 R203
G1 X216.630 Y71.426 E0.01676
G1 X173.574 Y28.370 E1.91149
G1 X174.108 Y28.370 E0.01676
G1 X216.630 Y70.892 E1.88779
G1 X216.630 Y70.358 E0.01676
G1 X174.642 Y28.370 E1.86408
G1 X175.176 Y28.370 E0.01676
G1 X216.630 Y69.824 E1.84038
G1 X216.630 Y69.290 E0.01676
G1 X175.710 Y28.370 E1.81667
G1 X176.244 Y28.370 E0.01676
G1 X216.630 Y68.756 E1.79297
G1 X216.630 Y68.222 E0.01676
G1 X176.778 Y28.370 E1.76927
G1 X177.312 Y28.370 E0.01676
G1 X216.630 Y67.688 E1.74556
G1 X216.630 Y67.154 E0.01676
G1 X177.846 Y28.370 E1.72186
G1 X178.380 Y28.370 E0.01676
G1 X216.630 Y66.620 E1.69816
G1 X216.630 Y66.087 E0.01676
G1 X178.913 Y28.370 E1.67445
G1 X179.370 Y28.370 E0.01433
G1 X179.370 Y28.292 E0.00243
G1 X216.630 Y65.553 E1.65419
G1 X216.630 Y65.019 E0.01676
G1 X179.370 Y27.758 E1.65419
G1 X179.370 Y27.224 E0.01676
G1 X216.630 Y64.485 E1.65419
G1 X216.630 Y63.951 E0.01676
G1 X179.549 Y26.870 E1.64623
G1 X180.083 Y26.870 E0.01676
G1 X216.630 Y63.417 E1.62253
G1 X216.630 Y62.883 E0.01676
G1 X180.617 Y26.870 E1.59882
G1 X181.151 Y26.870 E0.01676
G1 X216.630 Y62.349 E1.57512
G1 X216.630 Y61.815 E0.01676
G1 X181.685 Y26.870 E1.55142
G1 X182.219 Y26.870 E0.01676
G1 X216.800 Y61.451 E1.53525
G1 F8640
G1 X214.472 Y59.124 E-0.76000
G1 E-0.04000 F2100.00000
G1 Z0.800 F10800.000
G1 X216.800 Y59.849
G1 Z0.200
G1 E0.80000 F2100.00000
G1 F1200
G1 X216.562 Y59.611 E0.01058
G1 X216.028 Y59.611 E0.01676
G1 X216.630 Y60.213 E0.02675
G1 X216.630 Y60.747 E0.01676
G1 X215.494 Y59.611 E0.05045
G1 X215.130 Y59.611 E0.01141
G1 X215.130 Y59.247 E0.01141
G1 X182.753 Y26.870 E1.43742
G1 X183.287 Y26.870 E0.01676
G1 X215.130 Y58.713 E1.41371
M73 Q2 S203
M73 P2 R202
G1 X215.130 Y58.179 E0.01676
G1 X183.651 Y26.700 E1.39754
G1 F8640
G1 X185.978 Y29.028 E-0.76000
G1 E-0.04000 F2100.00000
G1 Z0.800 F10800.000
G1 X185.253 Y26.700
G1 Z0.200
G1 E0.80000 F2100.00000
G1 F1200
G1 X185.488 Y26.936 E0.01045
G1 X185.488 Y27.470 E0.01676
G1 X184.888 Y26.870 E0.02662
G1 X184.354 Y26.870 E0.01676
G1 X185.488 Y28.003 E0.05033
G1 X185.488 Y28.370 E0.01150
G1 X185.854 Y28.370 E0.01150
G1 X215.130 Y57.646 E1.29971
G1 X215.130 Y57.112 E0.01676
G1 X186.388 Y28.370 E1.27601
G1 X186.922 Y28.370 E0.01676
G1 X215.130 Y56.578 E1.25230
G1 X215.130 Y56.044 E0.01676
G1 X187.456 Y28.370 E1.22860
G1 X187.990 Y28.370 E0.01676
G1 X215.130 Y55.510 E1.20490
G1 X215.130 Y54.976 E0.01676
G1 X188.524 Y28.370 E1.18119
G1 X189.058 Y28.370 E0.01676
G1 X215.130 Y54.442 E1.15749
G1 X215.130 Y53.908 E0.01676
G1 X189.592 Y28.370 E1.13379
G1 X190.126 Y28.370 E0.01676
G1 X215.130 Y53.374 E1.11008
G1 X215.130 Y52.840 E0.01676
G1 X190.660 Y28.370 E1.08638
G1 X191.194 Y28.370 E0.01676
G1 X215.130 Y52.306 E1.06267
G1 X215.130 Y51.772 E0.01676
G1 X191.728 Y28.370 E1.03897
G1 X192.261 Y28.370 E0.01676
G1 X215.130 Y51.239 E1.01527
G1 X215.130 Y50.705 E0.01676
G1 X192.795 Y28.370 E0.99156
G1 X193.329 Y28.370 E0.01676
G1 X215.130 Y50.171 E0.96786
G1 X215.130 Y49.637 E0.01676
G1 X193.863 Y28.370 E0.94416
G1 X194.397 Y28.370 E0.01676
G1 X215.130 Y49.103 E0.92045
G1 X215.130 Y48.569 E0.01676
G1 X194.931 Y28.370 E0.89675
G1 X195.465 Y28.370 E0.01676
G1 X215.130 Y48.035 E0.87305
G1 X215.130 Y47.501 E0.01676
G1 X195.999 Y28.370 E0.84934
G1 X196.533 Y28.370 E0.01676
G1 X215.130 Y46.967 E0.82564
G1 X215.130 Y46.433 E0.01676
G1 X197.067 Y28.370 E0.80193
G1 X197.601 Y28.370 E0.01676
G1 X215.130 Y45.899 E0.77823
G1 X215.130 Y45.365 E0.01676
G1 X198.135 Y28.370 E0.75453
G1 X198.669 Y28.370 E0.01676
G1 X215.130 Y44.831 E0.73082
G1 X215.130 Y44.298 E0.01676
G1 X199.202 Y28.370 E0.70712
G1 X199.736 Y28.370 E0.01676
G1 X215.130 Y43.764 E0.68342
G1 X215.130 Y43.230 E0.01676
G1 X200.270 Y28.370 E0.65971
G1 X200.804 Y28.370 E0.01676
G1 X215.130 Y42.696 E0.63601
G1 X215.130 Y42.162 E0.01676
G1 X201.028 Y28.060 E0.62608
G1 X201.028 Y27.526 E0.01676
G1 X215.130 Y41.628 E0.62608
G1 X215.130 Y41.094 E0.01676
G1 X201.028 Y26.992 E0.62608
G1 X201.028 Y26.870 E0.00382
G1 X201.440 Y26.870 E0.01294
G1 X215.130 Y40.560 E0.60779
G1 X215.130 Y40.026 E0.01676
G1 X201.974 Y26.870 E0.58408
G1 X202.508 Y26.870 E0.01676
G1 X215.130 Y39.492 E0.56038
G1 X215.130 Y38.958 E0.01676
G1 X203.042 Y26.870 E0.53668
G1 X203.576 Y26.870 E0.01676
G1 X215.130 Y38.424 E0.51297
G1 X215.130 Y37.891 E0.01676
G1 X204.109 Y26.870 E0.48927
G1 X204.643 Y26.870 E0.01676
G1 X215.645 Y37.871 E0.48841
G1 X216.179 Y37.871 E0.01676
G1 X205.177 Y26.870 E0.48841
G1 X205.711 Y26.870 E0.01676
G1 X216.630 Y37.789 E0.48475
G1 X216.630 Y37.255 E0.01676
G1 X206.245 Y26.870 E0.46105
M73 Q2 S202
M73 P2 R201
G1 X206.779 Y26.870 E0.01676
G1 X216.630 Y36.721 E0.43734
G1 X216.630 Y36.187 E0.01676
G1 X207.313 Y26.870 E0.41364
G1 X207.847 Y26.870 E0.01676
G1 X216.630 Y35.653 E0.38994
G1 X216.630 Y35.119 E0.01676
G1 X208.381 Y26.870 E0.36623
G1 X208.915 Y26.870 E0.01676
G1 X216.630 Y34.585 E0.34253
G1 X216.630 Y34.051 E0.01676
G1 X209.449 Y26.870 E0.31883
G1 X209.983 Y26.870 E0.01676
G1 X216.630 Y33.517 E0.29512
G1 X216.630 Y32.984 E0.01676
G1 X210.516 Y26.870 E0.27142
G1 X211.050 Y26.870 E0.01676
G1 X216.630 Y32.450 E0.24772
G1 X216.630 Y31.916 E0.01676
G1 X211.584 Y26.870 E0.22401
G1 X212.118 Y26.870 E0.01676
G1 X216.630 Y31.382 E0.20031
G1 X216.630 Y30.848 E0.01676
G1 X212.652 Y26.870 E0.17660
G1 X213.186 Y26.870 E0.01676
G1 X216.630 Y30.314 E0.15290
G1 X216.630 Y30.057 E0.00806
G1 X216.588 Y29.738 E0.01010
G1 X213.762 Y26.912 E0.12547
G1 X214.308 Y26.984 E0.01729
G1 X214.410 Y27.026 E0.00346
G1 X216.704 Y29.320 E0.10186
G1 F8640
G1 X214.410 Y27.026 E-0.74919
G1 X214.367 Y27.008 E-0.01081
G1 E-0.04000 F2100.00000
G1 Z0.800 F10800.000
G1 X216.800 Y83.342
G1 Z0.200
G1 E0.80000 F2100.00000
G1 F1200
G1 X160.328 Y26.870 E2.50710
G1 X159.794 Y26.870 E0.01676
G1 X216.630 Y83.706 E2.52327
G1 X216.630 Y84.240 E0.01676
G1 X159.260 Y26.870 E2.54697
G1 X158.726 Y26.870 E0.01676
G1 X216.630 Y84.774 E2.57067
G1 X216.630 Y85.308 E0.01676
G1 X158.192 Y26.870 E2.59438
G1 X157.658 Y26.870 E0.01676
G1 X216.630 Y85.842 E2.61808
G1 X216.630 Y86.375 E0.01676
G1 X157.125 Y26.870 E2.64178
G1 X156.591 Y26.870 E0.01676
G1 X216.630 Y86.909 E2.66549
G1 X216.630 Y87.443 E0.01676
G1 X156.057 Y26.870 E2.68919
G1 X155.523 Y26.870 E0.01676
G1 X216.630 Y87.977 E2.71290
G1 X216.630 Y88.511 E0.01676
G1 X154.989 Y26.870 E2.73660
G1 X154.455 Y26.870 E0.01676
G1 X216.630 Y89.045 E2.76030
G1 X216.630 Y89.579 E0.01676
G1 X153.921 Y26.870 E2.78401
M73 Q2 S201
M73 P3 R199
G1 X153.387 Y26.870 E0.01676
G1 X216.630 Y90.113 E2.80771
G1 X216.630 Y90.647 E0.01676
G1 X152.853 Y26.870 E2.83141
G1 X152.319 Y26.870 E0.01676
G1 X216.630 Y91.181 E2.85512
G1 X216.630 Y91.715 E0.01676
G1 X151.785 Y26.870 E2.87882
G1 X151.251 Y26.870 E0.01676
G1 X216.630 Y92.249 E2.90252
G1 X216.630 Y92.782 E0.01676
G1 X150.718 Y26.870 E2.92623
G1 X150.184 Y26.870 E0.01676
G1 X216.630 Y93.316 E2.94993
G1 X216.630 Y93.850 E0.01676
G1 X149.650 Y26.870 E2.97364
G1 X149.116 Y26.870 E0.01676
G1 X216.630 Y94.384 E2.99734
G1 X216.630 Y94.918 E0.01676
G1 X148.582 Y26.870 E3.02104
G1 X148.048 Y26.870 E0.01676
G1 X216.630 Y95.452 E3.04475
G1 X216.630 Y95.986 E0.01676
G1 X147.514 Y26.870 E3.06845
G1 X146.980 Y26.870 E0.01676
G1 X216.630 Y96.520 E3.09215
M73 Q3 S200
M73 P3 R198
G1 X216.630 Y97.054 E0.01676
G1 X146.446 Y26.870 E3.11586
G1 X145.912 Y26.870 E0.01676
G1 X216.630 Y97.588 E3.13956
G1 X216.630 Y98.122 E0.01676
G1 X145.378 Y26.870 E3.16327
G1 X144.844 Y26.870 E0.01676
G1 X216.630 Y98.656 E3.18697
G1 X216.630 Y99.190 E0.01676
G1 X144.310 Y26.870 E3.21067
G1 X143.777 Y26.870 E0.01676
G1 X216.630 Y99.723 E3.23438
G1 X216.630 Y100.257 E0.01676
G1 X143.243 Y26.870 E3.25808
G1 X142.709 Y26.870 E0.01676
G1 X216.630 Y100.791 E3.28178
G1 X216.630 Y101.325 E0.01676
G1 X142.175 Y26.870 E3.30549
G1 X141.641 Y26.870 E0.01676
G1 X216.630 Y101.859 E3.32919
G1 X216.630 Y102.393 E0.01676
G1 X141.107 Y26.870 E3.35289
G1 X140.573 Y26.870 E0.01676
G1 X216.630 Y102.927 E3.37660
M73 Q3 S199
M73 P4 R197
G1 X216.630 Y103.461 E0.01676
G1 X140.039 Y26.870 E3.40030
G1 X139.505 Y26.870 E0.01676
G1 X216.630 Y103.995 E3.42401
G1 X216.630 Y104.529 E0.01676
G1 X138.971 Y26.870 E3.44771
G1 X138.437 Y26.870 E0.01676
G1 X216.630 Y105.063 E3.47141
G1 X216.630 Y105.597 E0.01676
G1 X137.903 Y26.870 E3.49512
G1 X137.370 Y26.870 E0.01676
G1 X216.630 Y106.130 E3.51882
G1 X216.630 Y106.664 E0.01676
G1 X136.836 Y26.870 E3.54252
G1 X136.302 Y26.870 E0.01676
G1 X216.630 Y107.198 E3.56623
G1 X216.630 Y107.732 E0.01676
G1 X135.768 Y26.870 E3.58993
G1 X135.234 Y26.870 E0.01676
G1 X216.630 Y108.266 E3.61363
G1 X216.630 Y108.800 E0.01676
G1 X134.700 Y26.870 E3.63734
M73 Q4 S198
M73 P4 R196
G1 X134.166 Y26.870 E0.01676
G1 X216.630 Y109.334 E3.66104
G1 X216.630 Y109.868 E0.01676
G1 X133.632 Y26.870 E3.68475
G1 X133.098 Y26.870 E0.01676
G1 X216.630 Y110.402 E3.70845
G1 X216.630 Y110.936 E0.01676
G1 X132.564 Y26.870 E3.73215
G1 X132.030 Y26.870 E0.01676
G1 X216.630 Y111.470 E3.75586
