; generated by PrusaSlicer 2.0.0+win64 on 2020-12-05 at 01:36:12

; 

; external perimeters extrusion width = 0.60mm
; perimeters extrusion width = 0.50mm
; infill extrusion width = 0.50mm
; solid infill extrusion width = 0.50mm
; top infill extrusion width = 0.45mm
; first layer extrusion width = 0.42mm

M73 P0 R163
M73 Q0 S164
M201 X1000 Y1000 Z200 E5000 ; sets maximum accelerations, mm/sec^2
M203 X200 Y200 Z12 E120 ; sets maximum feedrates, mm/sec
M204 P1250 R1250 T1250 ; sets acceleration (P, T) and retract acceleration (R), mm/sec^2
M205 X8.00 Y8.00 Z0.40 E1.50 ; sets the jerk limits, mm/sec
M205 S0 T0 ; sets the minimum extruding and travel feed rate, mm/sec
M107
M115 U3.9.1 ; tell printer latest fw version
G90 ; use absolute coordinates
M83 ; extruder relative mode
M104 S215 ; set extruder temp
M140 S60 ; set bed temp
M190 S60 ; wait for bed temp
M109 S215 ; wait for extruder temp
G28 W ; home all without mesh bed level
G80 ; mesh bed leveling
G1 Y-3.0 F1000.0 ; go outside print area
G92 E0.0
G1 X60.0 E9.0 F1000.0 ; intro line
M73 Q0 S164
M73 P0 R163
G1 X100.0 E12.5 F1000.0 ; intro line
G92 E0.0
M221 S95
M900 K30 ; Filament gcode
G21 ; set units to millimeters
G90 ; use absolute coordinates
M83 ; use relative distances for extrusion
;BEFORE_LAYER_CHANGE
G92 E0.0
;0.2


G1 E-0.80000 F2100.00000
G1 Z0.600 F10800.000
;AFTER_LAYER_CHANGE
;0.2
G1 X30.513 Y28.435
G1 Z0.200
G1 E0.80000 F2100.00000
M204 S1000
G1 F1200
G1 X31.024 Y27.139 E0.04368
G1 X31.280 Y26.693 E0.01612
G1 X32.221 Y25.532 E0.04686
G1 X33.392 Y24.649 E0.04598
G1 X34.644 Y24.107 E0.04277
G1 X35.115 Y23.976 E0.01532
G1 X36.480 Y23.812 E0.04312
G1 X213.504 Y23.811 E5.55044
G1 X214.886 Y23.976 E0.04365
G1 X215.373 Y24.114 E0.01587
G1 X216.631 Y24.662 E0.04302
G1 X217.870 Y25.618 E0.04906
G1 X218.738 Y26.718 E0.04392
G1 X218.982 Y27.153 E0.01567
G1 X219.486 Y28.429 E0.04300
G1 X219.688 Y29.940 E0.04781
G1 X219.688 Y180.029 E4.70594
G1 X219.486 Y181.569 E0.04868
G1 X218.975 Y182.864 E0.04369
G1 X218.717 Y183.310 E0.01612
G1 X217.779 Y184.468 E0.04674
G1 X216.608 Y185.351 E0.04598
G1 X215.356 Y185.893 E0.04277
G1 X214.885 Y186.024 E0.01532
G1 X213.520 Y186.188 E0.04312
G1 X36.496 Y186.189 E5.55044
G1 X34.935 Y185.987 E0.04936
G1 X33.639 Y185.476 E0.04368
G1 X33.193 Y185.220 E0.01612
G1 X32.032 Y184.278 E0.04686
G1 X31.149 Y183.108 E0.04598
G1 X30.607 Y181.856 E0.04277
G1 X30.476 Y181.385 E0.01532
G1 X30.312 Y180.023 E0.04301
G1 X30.311 Y29.996 E4.70399
G1 X30.505 Y28.495 E0.04748
G1 F8640
G1 X31.024 Y27.139 E-0.33515
G1 X31.280 Y26.693 E-0.11872
G1 X32.115 Y25.663 E-0.30613
G1 E-0.04000 F2100.00000
G1 Z0.800 F10800.000
G1 X97.913 Y78.413
G1 Z0.200
G1 E0.80000 F2100.00000
G1 F1200
G1 X135.087 Y78.413 E1.16557
G1 X135.087 Y115.587 E1.16557
G1 X97.913 Y115.587 E1.16557
G1 X97.913 Y78.473 E1.16369
G1 X98.290 Y78.790 F10800.000
G1 F1200
G1 X134.710 Y78.790 E1.14192
G1 X134.710 Y115.210 E1.14192
G1 X98.290 Y115.210 E1.14192
G1 X98.290 Y78.850 E1.14004
G1 X98.186 Y78.404 F10800.000
G1 F8640
G1 X101.581 Y78.845 E-0.76000
G1 E-0.04000 F2100.00000
G1 Z0.800 F10800.000
G1 X35.618 Y26.708
G1 Z0.200
G1 E0.80000 F2100.00000
G1 F1200
G1 X36.538 Y26.587 E0.02911
G1 X213.518 Y26.594 E5.54907
M73 Q0 S163
M73 P0 R162
G1 X214.382 Y26.708 E0.02733
G1 X215.204 Y27.049 E0.02789
G1 X215.910 Y27.590 E0.02789
G1 X216.451 Y28.296 E0.02789
G1 X216.792 Y29.118 E0.02789
G1 X216.913 Y30.038 E0.02911
G1 X216.913 Y179.962 E4.70073
G1 X216.792 Y180.882 E0.02911
G1 X216.451 Y181.704 E0.02789
G1 X215.910 Y182.410 E0.02789
G1 X215.204 Y182.951 E0.02789
G1 X214.382 Y183.292 E0.02789
G1 X213.462 Y183.413 E0.02911
G1 X36.538 Y183.413 E5.54730
G1 X35.618 Y183.292 E0.02911
G1 X34.796 Y182.951 E0.02789
G1 X34.090 Y182.410 E0.02789
G1 X33.549 Y181.704 E0.02789
G1 X33.208 Y180.882 E0.02789
G1 X33.087 Y179.962 E0.02911
G1 X33.087 Y30.038 E4.70073
G1 X33.208 Y29.118 E0.02911
G1 X33.549 Y28.296 E0.02789
G1 X34.090 Y27.590 E0.02789
G1 X34.796 Y27.049 E0.02789
G1 X35.563 Y26.731 E0.02601
G1 X35.520 Y26.341 F10800.000
G1 F1200
G1 X36.514 Y26.210 E0.03144
G1 X213.543 Y26.217 E5.55062
G1 X214.480 Y26.341 E0.02966
G1 X215.394 Y26.719 E0.03101
G1 X216.179 Y27.321 E0.03101
G1 X216.781 Y28.106 E0.03101
G1 X217.159 Y29.020 E0.03101
G1 X217.290 Y30.014 E0.03144
G1 X217.290 Y179.986 E4.70228
G1 X217.159 Y180.980 E0.03144
G1 X216.781 Y181.894 E0.03101
G1 X216.179 Y182.679 E0.03101
G1 X215.394 Y183.281 E0.03101
G1 X214.480 Y183.659 E0.03101
G1 X213.486 Y183.790 E0.03144
G1 X36.514 Y183.790 E5.54885
G1 X35.520 Y183.659 E0.03144
G1 X34.606 Y183.281 E0.03101
G1 X33.821 Y182.679 E0.03101
G1 X33.219 Y181.894 E0.03101
G1 X32.841 Y180.980 E0.03101
G1 X32.710 Y179.986 E0.03144
G1 X32.710 Y30.014 E4.70228
G1 X32.841 Y29.020 E0.03144
G1 X33.219 Y28.106 E0.03101
G1 X33.821 Y27.321 E0.03101
G1 X34.606 Y26.719 E0.03101
G1 X35.464 Y26.364 E0.02913
G1 X35.802 Y26.624 F10800.000
G1 F8640
G1 X36.514 Y26.210 E-0.24496
G1 X38.744 Y26.210 E-0.51504
G1 E-0.04000 F2100.00000
G1 Z0.800 F10800.000
G1 X35.821 Y183.204
G1 Z0.200
G1 E0.80000 F2100.00000
M73 Q1 S162
M73 P1 R161
G1 F1200
G1 X33.525 Y180.909 E0.10191
G1 X33.484 Y180.808 E0.00342
G1 X33.412 Y180.261 E0.01732
G1 X36.239 Y183.088 E0.12551
G1 X36.557 Y183.130 E0.01008
G1 X36.815 Y183.130 E0.00809
G1 X33.370 Y179.685 E0.15293
G1 X33.370 Y179.151 E0.01676
G1 X37.349 Y183.130 E0.17663
G1 X37.882 Y183.130 E0.01676
G1 X33.370 Y178.618 E0.20034
G1 X33.370 Y178.084 E0.01676
G1 X38.416 Y183.130 E0.22404
G1 X38.950 Y183.130 E0.01676
G1 X33.370 Y177.550 E0.24775
G1 X33.370 Y177.016 E0.01676
G1 X39.484 Y183.130 E0.27145
G1 X40.018 Y183.130 E0.01676
G1 X33.370 Y176.482 E0.29515
G1 X33.370 Y175.948 E0.01676
G1 X40.552 Y183.130 E0.31886
G1 X41.086 Y183.130 E0.01676
G1 X33.370 Y175.414 E0.34256
G1 X33.370 Y174.880 E0.01676
G1 X41.620 Y183.130 E0.36626
G1 X42.154 Y183.130 E0.01676
G1 X33.370 Y174.346 E0.38997
G1 X33.370 Y173.812 E0.01676
G1 X42.688 Y183.130 E0.41367
G1 X43.222 Y183.130 E0.01676
G1 X33.370 Y173.278 E0.43737
G1 X33.370 Y172.744 E0.01676
G1 X43.756 Y183.130 E0.46108
G1 X44.289 Y183.130 E0.01676
G1 X33.370 Y172.211 E0.48478
G1 X33.370 Y171.677 E0.01676
G1 X44.823 Y183.130 E0.50849
G1 X45.357 Y183.130 E0.01676
G1 X33.370 Y171.143 E0.53219
G1 X33.370 Y170.609 E0.01676
G1 X45.891 Y183.130 E0.55589
G1 X46.425 Y183.130 E0.01676
G1 X33.370 Y170.075 E0.57960
G1 X33.370 Y169.541 E0.01676
G1 X46.959 Y183.130 E0.60330
G1 X47.493 Y183.130 E0.01676
G1 X33.370 Y169.007 E0.62700
G1 X33.370 Y168.473 E0.01676
G1 X48.027 Y183.130 E0.65071
G1 X48.561 Y183.130 E0.01676
G1 X33.370 Y167.939 E0.67441
G1 X33.370 Y167.405 E0.01676
G1 X49.095 Y183.130 E0.69811
G1 X49.629 Y183.130 E0.01676
G1 X33.370 Y166.871 E0.72182
G1 X33.370 Y166.337 E0.01676
G1 X50.163 Y183.130 E0.74552
G1 X50.696 Y183.130 E0.01676
G1 X33.370 Y165.804 E0.76923
G1 X33.370 Y165.270 E0.01676
G1 X51.230 Y183.130 E0.79293
G1 X51.764 Y183.130 E0.01676
G1 X33.370 Y164.736 E0.81663
G1 X33.370 Y164.202 E0.01676
G1 X52.298 Y183.130 E0.84034
G1 X52.832 Y183.130 E0.01676
G1 X33.370 Y163.668 E0.86404
G1 X33.370 Y163.134 E0.01676
G1 X53.366 Y183.130 E0.88774
G1 X53.900 Y183.130 E0.01676
G1 X33.370 Y162.600 E0.91145
G1 X33.370 Y162.066 E0.01676
G1 X54.434 Y183.130 E0.93515
G1 X54.968 Y183.130 E0.01676
G1 X33.370 Y161.532 E0.95885
G1 X33.370 Y160.998 E0.01676
G1 X55.502 Y183.130 E0.98256
G1 X56.036 Y183.130 E0.01676
G1 X33.370 Y160.464 E1.00626
G1 X33.370 Y159.930 E0.01676
G1 X56.570 Y183.130 E1.02997
G1 X57.104 Y183.130 E0.01676
G1 X33.370 Y159.396 E1.05367
G1 X33.370 Y158.863 E0.01676
G1 X57.637 Y183.130 E1.07737
G1 X58.171 Y183.130 E0.01676
G1 X33.370 Y158.329 E1.10108
G1 X33.370 Y157.795 E0.01676
G1 X58.705 Y183.130 E1.12478
G1 X59.239 Y183.130 E0.01676
G1 X33.370 Y157.261 E1.14848
G1 X33.370 Y156.727 E0.01676
G1 X59.773 Y183.130 E1.17219
G1 X60.307 Y183.130 E0.01676
G1 X33.370 Y156.193 E1.19589
G1 X33.370 Y155.659 E0.01676
G1 X60.841 Y183.130 E1.21960
G1 X61.375 Y183.130 E0.01676
G1 X33.370 Y155.125 E1.24330
G1 X33.370 Y154.591 E0.01676
G1 X61.909 Y183.130 E1.26700
G1 X62.443 Y183.130 E0.01676
G1 X33.370 Y154.057 E1.29071
G1 X33.370 Y153.523 E0.01676
G1 X62.977 Y183.130 E1.31441
M73 Q1 S160
M73 P1 R160
G1 X63.511 Y183.130 E0.01676
G1 X33.370 Y152.989 E1.33811
G1 X33.370 Y152.456 E0.01676
G1 X64.044 Y183.130 E1.36182
G1 X64.578 Y183.130 E0.01676
G1 X33.370 Y151.922 E1.38552
G1 X33.370 Y151.388 E0.01676
G1 X65.112 Y183.130 E1.40922
G1 X65.646 Y183.130 E0.01676
G1 X33.370 Y150.854 E1.43293
G1 X33.370 Y150.320 E0.01676
G1 X66.180 Y183.130 E1.45663
G1 X66.714 Y183.130 E0.01676
G1 X33.370 Y149.786 E1.48034
G1 X33.370 Y149.252 E0.01676
G1 X67.248 Y183.130 E1.50404
G1 X67.782 Y183.130 E0.01676
G1 X33.370 Y148.718 E1.52774
G1 X33.370 Y148.184 E0.01676
G1 X68.316 Y183.130 E1.55145
G1 X68.850 Y183.130 E0.01676
G1 X33.370 Y147.650 E1.57515
G1 X33.370 Y147.116 E0.01676
G1 X69.384 Y183.130 E1.59885
G1 X69.918 Y183.130 E0.01676
G1 X33.370 Y146.582 E1.62256
G1 X33.370 Y146.048 E0.01676
G1 X70.452 Y183.130 E1.64626
G1 X70.985 Y183.130 E0.01676
G1 X33.370 Y145.515 E1.66996
G1 X33.370 Y144.981 E0.01676
G1 X71.519 Y183.130 E1.69367
G1 X72.053 Y183.130 E0.01676
G1 X33.370 Y144.447 E1.71737
G1 X33.370 Y143.913 E0.01676
G1 X72.587 Y183.130 E1.74108
G1 X73.121 Y183.130 E0.01676
G1 X33.370 Y143.379 E1.76478
G1 X33.370 Y142.845 E0.01676
G1 X73.655 Y183.130 E1.78848
G1 X74.189 Y183.130 E0.01676
G1 X33.370 Y142.311 E1.81219
G1 X33.370 Y141.777 E0.01676
G1 X74.723 Y183.130 E1.83589
G1 X75.257 Y183.130 E0.01676
G1 X33.370 Y141.243 E1.85959
G1 X33.370 Y140.709 E0.01676
G1 X75.791 Y183.130 E1.88330
M73 Q2 S159
M73 P2 R159
G1 X76.325 Y183.130 E0.01676
G1 X33.370 Y140.175 E1.90700
G1 X33.370 Y139.641 E0.01676
G1 X76.859 Y183.130 E1.93070
G1 X77.392 Y183.130 E0.01676
G1 X33.370 Y139.108 E1.95441
G1 X33.370 Y138.574 E0.01676
G1 X77.926 Y183.130 E1.97811
G1 X78.460 Y183.130 E0.01676
G1 X33.370 Y138.040 E2.00182
G1 X33.370 Y137.506 E0.01676
G1 X78.994 Y183.130 E2.02552
G1 X79.528 Y183.130 E0.01676
G1 X33.370 Y136.972 E2.04922
G1 X33.370 Y136.438 E0.01676
G1 X80.062 Y183.130 E2.07293
G1 X80.596 Y183.130 E0.01676
G1 X33.370 Y135.904 E2.09663
G1 X33.370 Y135.370 E0.01676
G1 X81.130 Y183.130 E2.12033
G1 X81.664 Y183.130 E0.01676
G1 X33.370 Y134.836 E2.14404
G1 X33.370 Y134.302 E0.01676
G1 X82.198 Y183.130 E2.16774
G1 X82.732 Y183.130 E0.01676
G1 X33.370 Y133.768 E2.19144
G1 X33.370 Y133.234 E0.01676
G1 X83.266 Y183.130 E2.21515
G1 X83.799 Y183.130 E0.01676
G1 X33.370 Y132.701 E2.23885
G1 X33.370 Y132.167 E0.01676
G1 X84.333 Y183.130 E2.26256
G1 X84.867 Y183.130 E0.01676
G1 X33.370 Y131.633 E2.28626
G1 X33.370 Y131.099 E0.01676
G1 X85.401 Y183.130 E2.30996
M73 Q3 S158
M73 P3 R158
G1 X85.935 Y183.130 E0.01676
G1 X33.370 Y130.565 E2.33367
G1 X33.370 Y130.031 E0.01676
G1 X86.469 Y183.130 E2.35737
G1 X87.003 Y183.130 E0.01676
G1 X33.370 Y129.497 E2.38107
G1 X33.370 Y128.963 E0.01676
G1 X87.537 Y183.130 E2.40478
G1 X88.071 Y183.130 E0.01676
G1 X33.370 Y128.429 E2.42848
G1 X33.370 Y127.895 E0.01676
G1 X88.605 Y183.130 E2.45219
G1 X89.139 Y183.130 E0.01676
G1 X33.370 Y127.361 E2.47589
G1 X33.370 Y126.827 E0.01676
G1 X89.673 Y183.130 E2.49959
G1 X90.207 Y183.130 E0.01676
G1 X33.370 Y126.293 E2.52330
G1 X33.370 Y125.760 E0.01676
G1 X90.740 Y183.130 E2.54700
G1 X91.274 Y183.130 E0.01676
G1 X33.370 Y125.226 E2.57070
G1 X33.370 Y124.692 E0.01676
G1 X91.808 Y183.130 E2.59441
G1 X92.342 Y183.130 E0.01676
G1 X33.370 Y124.158 E2.61811
G1 X33.370 Y123.624 E0.01676
G1 X92.876 Y183.130 E2.64181
G1 X93.410 Y183.130 E0.01676
G1 X33.370 Y123.090 E2.66552
M73 Q3 S157
M73 P3 R157
G1 X33.370 Y122.556 E0.01676
G1 X93.944 Y183.130 E2.68922
G1 X94.478 Y183.130 E0.01676
G1 X33.370 Y122.022 E2.71293
G1 X33.370 Y121.488 E0.01676
G1 X95.012 Y183.130 E2.73663
G1 X95.546 Y183.130 E0.01676
G1 X33.370 Y120.954 E2.76033
G1 X33.370 Y120.420 E0.01676
G1 X96.080 Y183.130 E2.78404
G1 X96.614 Y183.130 E0.01676
G1 X33.370 Y119.886 E2.80774
G1 X33.370 Y119.353 E0.01676
G1 X97.147 Y183.130 E2.83144
G1 X97.681 Y183.130 E0.01676
G1 X33.370 Y118.819 E2.85515
G1 X33.370 Y118.285 E0.01676
G1 X98.215 Y183.130 E2.87885
G1 X98.749 Y183.130 E0.01676
G1 X33.370 Y117.751 E2.90255
G1 X33.370 Y117.217 E0.01676
G1 X99.283 Y183.130 E2.92626
G1 X99.817 Y183.130 E0.01676
G1 X33.370 Y116.683 E2.94996
G1 X33.370 Y116.149 E0.01676
G1 X100.351 Y183.130 E2.97367
G1 X100.885 Y183.130 E0.01676
G1 X33.370 Y115.615 E2.99737
M73 Q4 S156
M73 P4 R156
G1 X33.370 Y115.081 E0.01676
G1 X101.419 Y183.130 E3.02107
G1 X101.953 Y183.130 E0.01676
G1 X33.370 Y114.547 E3.04478
G1 X33.370 Y114.013 E0.01676
G1 X102.487 Y183.130 E3.06848
G1 X103.021 Y183.130 E0.01676
G1 X33.370 Y113.479 E3.09218
G1 X33.370 Y112.945 E0.01676
G1 X103.555 Y183.130 E3.11589
G1 X104.088 Y183.130 E0.01676
G1 X33.370 Y112.412 E3.13959
G1 X33.370 Y111.878 E0.01676
G1 X104.622 Y183.130 E3.16329
G1 X105.156 Y183.130 E0.01676
G1 X33.370 Y111.344 E3.18700
G1 X33.370 Y110.810 E0.01676
G1 X105.690 Y183.130 E3.21070
G1 X106.224 Y183.130 E0.01676
G1 X33.370 Y110.276 E3.23441
G1 X33.370 Y109.742 E0.01676
G1 X106.758 Y183.130 E3.25811
G1 X107.292 Y183.130 E0.01676
G1 X33.370 Y109.208 E3.28181
M73 Q5 S155
M73 P5 R155
G1 X33.370 Y108.674 E0.01676
G1 X107.826 Y183.130 E3.30552
G1 X108.360 Y183.130 E0.01676
G1 X33.370 Y108.140 E3.32922
G1 X33.370 Y107.606 E0.01676
G1 X108.894 Y183.130 E3.35292
G1 X109.428 Y183.130 E0.01676
G1 X33.370 Y107.072 E3.37663
G1 X33.370 Y106.538 E0.01676
G1 X109.962 Y183.130 E3.40033
G1 X110.495 Y183.130 E0.01676
G1 X33.370 Y106.005 E3.42404
G1 X33.370 Y105.471 E0.01676
G1 X111.029 Y183.130 E3.44774
G1 X111.563 Y183.130 E0.01676
G1 X33.370 Y104.937 E3.47144
G1 X33.370 Y104.403 E0.01676
G1 X112.097 Y183.130 E3.49515
G1 X112.631 Y183.130 E0.01676
G1 X33.370 Y103.869 E3.51885
G1 X33.370 Y103.335 E0.01676
G1 X113.165 Y183.130 E3.54255
M73 Q5 S154
M73 P5 R154
G1 X113.699 Y183.130 E0.01676
G1 X33.370 Y102.801 E3.56626
G1 X33.370 Y102.267 E0.01676
G1 X114.233 Y183.130 E3.58996
G1 X114.767 Y183.130 E0.01676
G1 X33.370 Y101.733 E3.61366
G1 X33.370 Y101.199 E0.01676
G1 X115.301 Y183.130 E3.63737
G1 X115.835 Y183.130 E0.01676
G1 X33.370 Y100.665 E3.66107
G1 X33.370 Y100.131 E0.01676
G1 X116.369 Y183.130 E3.68478
G1 X116.902 Y183.130 E0.01676
G1 X33.370 Y99.598 E3.70848
G1 X33.370 Y99.064 E0.01676
G1 X117.436 Y183.130 E3.73218
G1 X117.970 Y183.130 E0.01676
G1 X33.370 Y98.530 E3.75589
G1 X33.370 Y97.996 E0.01676
G1 X118.504 Y183.130 E3.77959
G1 X119.038 Y183.130 E0.01676
G1 X33.370 Y97.462 E3.80329
M73 Q6 S153
M73 P6 R153
G1 X33.370 Y96.928 E0.01676
G1 X119.572 Y183.130 E3.82700
G1 X120.106 Y183.130 E0.01676
G1 X33.370 Y96.394 E3.85070
G1 X33.370 Y95.860 E0.01676
G1 X120.640 Y183.130 E3.87440
G1 X121.174 Y183.130 E0.01676
G1 X33.370 Y95.326 E3.89811
G1 X33.370 Y94.792 E0.01676
G1 X121.708 Y183.130 E3.92181
G1 X122.242 Y183.130 E0.01676
G1 X33.370 Y94.258 E3.94552
G1 X33.370 Y93.724 E0.01676
G1 X122.776 Y183.130 E3.96922
G1 X123.310 Y183.130 E0.01676
G1 X33.370 Y93.190 E3.99292
G1 X33.370 Y92.657 E0.01676
G1 X123.843 Y183.130 E4.01663
G1 X124.377 Y183.130 E0.01676
G1 X33.370 Y92.123 E4.04033
M73 Q6 S152
M73 P6 R152
G1 X33.370 Y91.589 E0.01676
G1 X124.911 Y183.130 E4.06403
G1 X125.445 Y183.130 E0.01676
G1 X33.370 Y91.055 E4.08774
G1 X33.370 Y90.521 E0.01676
G1 X125.979 Y183.130 E4.11144
G1 X126.513 Y183.130 E0.01676
G1 X33.370 Y89.987 E4.13514
G1 X33.370 Y89.453 E0.01676
G1 X127.047 Y183.130 E4.15885
G1 X127.581 Y183.130 E0.01676
G1 X33.370 Y88.919 E4.18255
G1 X33.370 Y88.385 E0.01676
G1 X128.115 Y183.130 E4.20626
G1 X128.649 Y183.130 E0.01676
G1 X33.370 Y87.851 E4.22996
G1 X33.370 Y87.317 E0.01676
G1 X129.183 Y183.130 E4.25366
G1 X129.717 Y183.130 E0.01676
G1 X33.370 Y86.783 E4.27737
M73 Q7 S151
M73 P7 R151
G1 X33.370 Y86.250 E0.01676
G1 X130.250 Y183.130 E4.30107
G1 X130.784 Y183.130 E0.01676
G1 X33.370 Y85.716 E4.32477
G1 X33.370 Y85.182 E0.01676
G1 X131.318 Y183.130 E4.34848
G1 X131.852 Y183.130 E0.01676
G1 X33.370 Y84.648 E4.37218
G1 X33.370 Y84.114 E0.01676
G1 X132.386 Y183.130 E4.39589
G1 X132.920 Y183.130 E0.01676
G1 X33.370 Y83.580 E4.41959
G1 X33.370 Y83.046 E0.01676
